!!!!SEGMENT: pl-sa--129-a-iii-29--001_graun-carl-heinrich--ad-quid-cogitabo.krn
!!!cenid: 17xx:619
!!!COM: Graun, Carl Heinrich
!!!COM-rismID: pe30001351
!!!CDT: 1704/05/07-1759/08/08
!!!CNT: German
!!!OTL: Ad quid cogitabo
!!!PDT:
!!!AGN: Sacred
!!!SMS-siglum: PL-SA
!!!SMS-shelfmark: 129/A III 29
!!!SMS-shelfwork: 001 W
!!!SMS-variant:
!!!SMS-altvar:
!!!NIFC-rismSourceID: 1001041694
!!!NIFC-islandoraID:
!!!URL-pdf-islandora:
!!!URL-scan: https://bc.bdsandomierz.pl/dlibra/publication/1486/edition/1454/content @EN{Scan in the Sandomierz Diocese Digital Library} @PL{Skany w portalu Cyfrowa Biblioteka Diecezjalna w Sandomierzu}
!!!ONB-nifc:
!!!AIN: 2 empty 1 violn 2 vox
!!!key:
**kern	**fba	**dynam	**kern	**dynam	**kern	**dynam	**kern	**text	**kern	**text
*part5	*	*part5	*part4	*part4	*part3	*part3	*part2	*part2	*part1	*part1
*	*	*	*group2	*	*group2	*	*group1	*	*group1	*
*staff5	*	*	*staff4	*	*staff3	*	*staff2	*staff2	*staff1	*staff1
*Iempty	*	*	*Iempty	*	*Ivioln	*	*Ivox	*	*Ivox	*
*I"Fundamento	*	*	*	*	*I"Violino Primo	*	*I"Canto Secundo.	*	*I"Canto Primo	*
*I'fund.	*	*	*I'vl 2	*	*I'vl 1	*	*I'C 2	*	*I'C 1	*
*clefF4	*	*	*clefG2	*	*clefG2	*	*clefC1	*	*clefC1	*
*k[b-]	*	*	*k[b-]	*	*k[b-]	*	*k[b-]	*	*k[b-]	*
*F:	*	*	*F:	*	*F:	*	*F:	*	*F:	*
*M2/2	*	*	*M2/2	*	*M2/2	*	*M2/2	*	*M2/2	*
*met(c|)	*	*	*met(c|)	*	*met(c|)	*	*met(c|)	*	*met(c|)	*
=1	=1	=1	=1	=1	=1	=1	=1	=1	=1	=1
!LO:TX:a:t=P:problem=bemol przy kluczu oktaw wyżej	!	!	!LO:TX:a:t=P:problem=wszystkie caudy z prawej lub na środku - nieprecyzyjność kopisty	!	!	!	!LO:TX:a:t=7	!	!LO:TX:a:t=7	!
!LO:TX:a:t=P:problem=wszystkie caudy z prawej	!	!	!LO:TX:a:B:t=Moderato	!	!LO:TX:a:t=P:problem=wszystkie caudy z prawej lub na środku - nieprecyzyjność kopisty	!	!	!	!LO:TX:a:t=Affectuosiſsimo	!
!LO:TX:a:B:t=I	!	!	!LO:TX:a:B:t=Ima	!	!LO:TX:a:B:t=I	!	!	!	!LO:TX:a:B:t=I	!
8F\L	.	.	4cc\	.	4cc\	.	00r	.	00r	.
8F\	.	.	.	.	.	.	.	.	.	.
8E\	.	.	4cc\	.	4cc\	.	.	.	.	.
8E\J	.	.	.	.	.	.	.	.	.	.
8D\L	.	.	8.dd\L	.	(8.dd\L	.	.	.	.	.
8D\	.	.	.	.	.	.	.	.	.	.
.	.	.	16ee\Jk	.	16ee\Jk)	.	.	.	.	.
8D\	.	.	8ff\L	.	(8ff\L	.	.	.	.	.
8D\J	.	.	16ee\L	.	16ee\L	.	.	.	.	.
.	.	.	16dd\JJ	.	16dd\JJ)	.	.	.	.	.
=2	=2	=2	=2	=2	=2	=2	=2	=2	=2	=2
8E\L	.	.	8.cc\L	.	(8.cc\L	.	.	.	.	.
8E\	.	.	.	.	.	.	.	.	.	.
!	!	!	!LO:N:vis=16.	!	!	!	!	!	!	!
.	.	.	32ee\LL	.	32ee\LL	.	.	.	.	.
.	.	.	32ff\JJJ	.	32ff\JJJ)	.	.	.	.	.
8E\	.	.	8gg\L	.	8gg\L	.	.	.	.	.
8E\J	.	.	8b-\J	.	8b-\J	.	.	.	.	.
8r	.	.	8b-\L	.	8b-\L	.	.	.	.	.
!LO:TX:a:t=P:problem=mixed beam	!	!	!	!	!	!	!	!	!	!
8F\L	.	.	8a\J	.	8a\J	.	.	.	.	.
8FF/	.	.	4r	.	4r	.	.	.	.	.
8F\J	.	.	.	.	.	.	.	.	.	.
=3	=3	=3	=3	=3	=3	=3	=3	=3	=3	=3
8r	.	.	(16dd\LL	.	(16dd\LL	.	.	.	.	.
.	.	.	16b-\JJ	.	16b-\JJ)	.	.	.	.	.
8F\L	.	.	4ff\	.	4ff\	.	.	.	.	.
8F\	.	.	.	.	.	.	.	.	.	.
8F\J	.	.	8dd\)	.	8dd\	.	.	.	.	.
8r	.	.	8dd\L	.	8dd\L	.	.	.	.	.
!LO:TX:a:t=P:problem=mixed beam	!	!	!	!	!	!	!	!	!	!
8F\L	.	.	8cc\J	.	8cc\J	.	.	.	.	.
8FF/	.	.	4r	.	4r	.	.	.	.	.
8F\J	.	.	.	.	.	.	.	.	.	.
=4	=4	=4	=4	=4	=4	=4	=4	=4	=4	=4
8r	.	.	(16b-\LL	.	(16b-\LL	.	.	.	.	.
.	.	.	16g\JJ	.	16g\JJ)	.	.	.	.	.
8C/L	.	.	4gg\	.	4gg\	.	.	.	.	.
8C/	.	.	.	.	.	.	.	.	.	.
8C/J	.	.	8b-\)	.	8b-\	.	.	.	.	.
4F\	.	.	16.a\LL	.	16.a\LL	.	.	.	.	.
.	.	.	32b-\JK	.	32b-\JK	.	.	.	.	.
.	.	.	8b-\J	.	8b-\J	.	.	.	.	.
8r	.	.	4cc\	.	4cc\	.	.	.	.	.
32F\LLL	.	.	.	.	.	.	.	.	.	.
32G\	.	.	.	.	.	.	.	.	.	.
32A\	.	.	.	.	.	.	.	.	.	.
32B-\JJJ	.	.	.	.	.	.	.	.	.	.
=5	=5	=5	=5	=5	=5	=5	=5	=5	=5	=5
!	!	!	!	!	!	!LO:DY:b	!	!	!	!
4c\	.	.	(<8b-\	.	8b-\	p	0r	.	0r	.
.	.	.	4a/	.	4a\	.	.	.	.	.
4C/	.	.	.	.	.	.	.	.	.	.
.	.	.	8g/)	.	8g\	.	.	.	.	.
!	!	!	!	!LO:DY:a	!	!	!	!	!	!
4FF/	.	.	16.a\LL	p	16.a\LL	.	.	.	.	.
.	.	.	32b-\JK	.	32b-\JK	.	.	.	.	.
.	.	.	8b-\J	.	8b-\J	.	.	.	.	.
8r	.	.	4cc\	.	4cc\	.	.	.	.	.
!	!	!LO:DY:t=Pian	!	!	!	!	!	!	!	!
32FF/LLL	.	p	.	.	.	.	.	.	.	.
32GG/	.	.	.	.	.	.	.	.	.	.
32AA/	.	.	.	.	.	.	.	.	.	.
32BB-/JJJ	.	.	.	.	.	.	.	.	.	.
!LO:LB:g=original	!	!	!	!	!LO:LB:g=original	!	!	!	!	!
=6	=6	=6	=6	=6	=6	=6	=6	=6	=6	=6
4C/	.	.	(8b-/	.	8b-\	.	.	.	.	.
.	.	.	4a/)	.	4a\	.	.	.	.	.
4CC/	.	.	.	.	.	.	.	.	.	.
.	.	.	8g/	.	8g\	.	.	.	.	.
!	!	!LO:DY:a	!	!	!LO:N:vis=32.	!	!	!	!	!
8FF/L	.	f	32a\KLL	.	32a\KLL	.	.	.	.	.
.	.	.	16.aa\	.	16.aa\	.	.	.	.	.
!	!	!	!	!	!	!LO:DY:b	!	!	!	!
8GG/	.	.	32gg\K	.	32gg\K	f	.	.	.	.
.	.	.	16.ff\JJ	.	16.ff\JJ	.	.	.	.	.
!	!	!	!LO:LB:g=original	!	!LO:N:vis=16	!	!	!	!	!
8AA/	.	.	32ee\KLL	.	32ee\KLL	.	.	.	.	.
.	.	.	16.dd\	.	16.dd\	.	.	.	.	.
!	!	!	!	!	!LO:N:vis=16	!	!	!	!	!
8BB-/J	.	.	32cc\K	.	32cc\K	.	.	.	.	.
.	.	.	16.b-\JJ	.	16.b-\JJ	.	.	.	.	.
=7	=7	=7	=7	=7	=7	=7	=7	=7	=7	=7
*	*	*	*Xtuplet	*	*	*	*	*	*	*
!	!	!	!	!	!LO:TUP:a:problem=klamra łukowa	!	!	!	!	!
8C/L	.	.	24a\LL	.	24a\LL	.	1r	.	1r	.
.	.	.	24ff\	.	24ff\	.	.	.	.	.
.	.	.	24ee\JJ	.	24ee\JJ	.	.	.	.	.
!	!	!	!	!	!LO:TUP:a:problem=klamra łukowa	!	!	!	!	!
8BB-/	.	.	24dd\LL	.	24dd\LL	.	.	.	.	.
.	.	.	24cc\	.	24cc\	.	.	.	.	.
.	.	.	24b-\JJ	.	24b-\JJ	.	.	.	.	.
8C/	.	.	4g/	.	4g/	.	.	.	.	.
8CC/J	.	.	.	.	.	.	.	.	.	.
!	!	!	!	!	!LO:TUP:b:problem=klamra łukowa	!	!	!	!	!
4FF/	.	.	24f/LL	.	24f/LL	.	.	.	.	.
.	.	.	24c/	.	24c/)	.	.	.	.	.
.	.	.	24B-/JJ	.	24B-/JJ	.	.	.	.	.
!	!	!	!	!	!LO:TUP:b:problem=klamra łukowa	!	!	!	!	!
.	.	.	24A/LL	.	24A/LL	.	.	.	.	.
.	.	.	24B-/	.	24B-/	.	.	.	.	.
.	.	.	24c/JJ	.	24c/JJ	.	.	.	.	.
!LO:TX:t=[segno]:problem=znak segno na kresce taktowej	!	!	!LO:TX:t=[segno]:problem=znak segno na kresce taktowej	!	!LO:TX:t=[segno]:problem=znak segno na kresce taktowej	!	!LO:TX:a:t=[segno]:problem=znak segno na kresce taktowej	!	!LO:TX:t=[segno]:problem=znak segno na kresce taktowej	!
!	!	!	!LO:TX:a:t=P:problem=podwójna kreska taktowa	!	!LO:TX:a:t=P:problem=podwójna kreska taktowa	!	!	!	!	!
4r	.	.	4f/	.	4f/	.	.	.	.	.
=8	=8	=8	=8||	=8	=8||	=8	=8	=8	=8	=8
!	!	!	!	!	!	!	!LO:TX:a:t=6	!	!LO:TX:a:t=P:problem=wszystkie caudy z prawej lub na środku - nieprecyzyjność kopisty	!
!	!	!LO:DY:t=Pian&colon;	!	!	!	!	!	!	!LO:SIC:l:s=Ad:v	!
8F\L	.	p	8f/L	.	4cc\	.	00r	.	4cc\	At
8F\	.	.	8f/	.	.	.	.	.	.	.
8E\	.	.	8e/	.	4cc\	.	.	.	4cc\	quid
8E\J	.	.	8e/J	.	.	.	.	.	.	.
8D\L	.	.	8d/L	.	(8.dd\L	.	.	.	8.dd\L	.
8D\	.	.	8d/	.	.	.	.	.	.	.
.	.	.	.	.	16ee\Jk)	.	.	.	16ee\K	co-
8D\	.	.	8d/	.	(8ff\L	.	.	.	8ff\J	.
8D\J	.	.	8d/J	.	16ee\L	.	.	.	16ee\LL	-gi-
.	.	.	.	.	16dd\JJ)	.	.	.	16dd\JJ	.
=9	=9	=9	=9	=9	=9	=9	=9	=9	=9	=9
8E\L	.	.	8e/L	.	8.cc\L	.	.	.	8.cc\L	.
8E\	.	.	8e/	.	.	.	.	.	.	.
!	!	!	!	!	!LO:N:vis=16.	!	!	!	!	!
.	.	.	.	.	(32ee\LL	.	.	.	32ee\LL	-ta-
.	.	.	.	.	32ff\JJJ)	.	.	.	32ff\JJJ	.
8E\	.	.	8e/	.	(8gg\L	.	.	.	8gg\L	.
8E\J	.	.	8e/J	.	8b-\J)	.	.	.	8b-\J	.
8r	.	.	8b-/L	.	8b-\L	.	.	.	8b-\	.
!LO:TX:a:t=P:problem=mixed beam	!	!	!	!	!	!	!	!	!	!
8F\L	.	.	8f/	.	8a\J	.	.	.	8a\	-bo
8FF/	.	.	8f/	.	4r	.	.	.	4r	.
8F\J	.	.	8f/J	.	.	.	.	.	.	.
=10	=10	=10	=10	=10	=10	=10	=10	=10	=10	=10
8r	.	.	8r	.	(16dd\LL	.	.	.	16cc\LL	in
.	.	.	.	.	16b-\JJ	.	.	.	16b-\JJ	.
8F\L	.	.	8f/L	.	4ff\)	.	.	.	4ff\	.
8F\	.	.	8f/	.	.	.	.	.	.	.
8F\J	.	.	8f/J	.	8dd\	.	.	.	8dd\	ac-
!	!	!	!	!	!LO:SIC:s=8dd:v	!	!	!	!	!
8r	.	.	8r	.	8cc\L	.	.	.	8dd\	-ceſ-
!LO:TX:a:t=P:problem=mixed beam	!	!	!	!	!LO:SIC:s=8cc:v	!	!	!	!	!
8F\L	.	.	8f/L	.	8b-\J	.	.	.	8cc\	-su
8FF/	.	.	8f/	.	4r	.	.	.	4r	.
8F\J	.	.	8f/J	.	.	.	.	.	.	.
!	!	!	!	!	!LO:LB:g=original	!	!	!	!LO:LB:g=original	!
=11	=11	=11	=11	=11	=11	=11	=11	=11	=11	=11
8r	.	.	8r	.	16b-\LL	.	.	.	16b-\LL	ad
.	.	.	.	.	16g\JJ	.	.	.	16g\JJ	.
8C/L	.	.	8c/L	.	4gg\	.	.	.	4gg\	De-
8C/	.	.	8c/	.	.	.	.	.	.	.
8C/J	.	.	8c/J	.	8b-\	.	.	.	8b-\	-um
.	.	.	.	.	16qqa/	.	.	.	.	.
8r	.	.	8r	.	8b-\L	.	.	.	8b-\	me-
!LO:TX:a:t=P:problem=mixed beam	!	!	!	!	!	!	!	!	!	!
8F\L	.	.	8f/L	.	8a\J	.	.	.	8a\	-um
8FF/	.	.	8f/	.	8r	.	.	.	8r	.
8F\J	.	.	8f/J	.	[8cc\	.	.	.	8cc\	ri-
=12	=12	=12	=12	=12	=12	=12	=12	=12	=12	=12
4BB-/	.	.	4B-/	.	8cc\]	.	0r	.	8cc\	.
.	.	.	.	.	4dd\	.	.	.	4dd\	.
4G\	.	.	4g/	.	.	.	.	.	.	.
.	.	.	.	.	8ee\	.	.	.	8ee\	-te
4F\	.	.	4f/	.	16ff\LL	.	.	.	16ff\LL	Ve-
.	.	.	.	.	16cc\JJ	.	.	.	16cc\JJ	.
.	.	.	.	.	4cc\	.	.	.	8cc\	-ne-
4E\	.	.	4e/	.	.	.	.	.	8cc\	-ra-
.	.	.	.	.	8b-\	.	.	.	8b-\	-ri
!LO:LB:g=original	!	!	!	!	!	!	!	!	!	!
=13	=13	=13	=13	=13	=13	=13	=13	=13	=13	=13
!LO:TX:a:t=P:problem=mixed beam	!	!	!	!	!	!LO:DY:b	!	!	!	!
8F\L	.	.	8f/L	.	16a/LL	f	.	.	16a\LL	in
.	.	.	.	.	16f/JJ	.	.	.	16f\JJ	.
8BB-/	.	.	8B-/	.	16dd\LL	.	.	.	16dd\LL	pos
.	.	.	.	.	16b-\JJ	.	.	.	16b-\JJ	.
.	.	.	.	.	.	.	.	.	16qqa/	.
8C/	.	.	8c/	.	4g/	.	.	.	4g\	e-
8CC/J	.	.	8c/J	.	.	.	.	.	.	.
!LO:TX:a:t=P:problem=mixed beam	!	!LO:DY:t=for&colon;	!	!LO:DY:b	!	!	!	!	!	!
8.FF/L	.	f	8f/L	f	4f/	.	.	.	4f/	-um
.	.	.	16.f/L	.	.	.	.	.	.	.
16A\Jk	.	.	.	.	.	.	.	.	.	.
.	.	.	32a/JJk	.	.	.	.	.	.	.
!	!	!	!LO:LB:g=original	!	!	!	!	!	!	!
16G\LL	.	.	16g/LL	.	4r	.	.	.	4r	.
16F\	.	.	16f/	.	.	.	.	.	.	.
16E\	.	.	16e/	.	.	.	.	.	.	.
16D\JJ	.	.	16d/JJ	.	.	.	.	.	.	.
=14	=14	=14	=14	=14	=14	=14	=14	=14	=14	=14
!	!	!LO:DY:t=Pia&colon;	!	!	!	!LO:DY:a	!	!	!	!
8C/L	.	p	4g/	.	8c/L	p	4g\	En	00r	.
8C/	.	.	.	.	8c/	.	.	.	.	.
8BBn/	.	.	4g/	.	8Bn/	.	4g\	cum	.	.
8BB/J	.	.	.	.	8B/J	.	.	.	.	.
!	!	!	!	!LO:DY:b:t=piano	!	!	!	!	!	!
8AA/L	.	.	8.a/L	p	8A/L	.	8.a\L	sum-	.	.
8AA/	.	.	.	.	8A/	.	.	.	.	.
.	.	.	16bn/Jk	.	.	.	16bn\K	.	.	.
!	!	!	!	!	!	!	!LO:N:vis=8.	!	!	!
8AA/	.	.	8cc\L	.	8A/	.	8cc\J	.	.	.
8AA/J	.	.	16bn\L	.	8A/J	.	(16b\LL	-mo	.	.
.	.	.	16a\JJ	.	.	.	16a\JJ)	.	.	.
=15	=15	=15	=15	=15	=15	=15	=15	=15	=15	=15
8BBn/L	.	.	8g\L	.	8Bn/L	.	8g\L	af-	.	.
8BB/	.	.	16bn\L	.	8B/	.	16.bn\L	.	.	.
.	.	.	16cc\JJ	.	.	.	.	.	.	.
.	.	.	.	.	.	.	32cc\JJk	.	.	.
!	!	!	!LO:TX:a:t=P:problem=mixed beam	!	!	!	!	!	!	!
8BB/	.	.	8dd\L	.	8B/	.	8dd\	-fe-	.	.
8BB/J	.	.	8f/J	.	8B/J	.	8f/	-ctu	.	.
8r	.	.	8f/L	.	8r	.	8f/	cor-	.	.
8C/L	.	.	8e/J	.	8c/L	.	8e/	-dis	.	.
8CC/	.	.	4r	.	8c/	.	4r	.	.	.
8C/J	.	.	.	.	8c/J	.	.	.	.	.
=16	=16	=16	=16	=16	=16	=16	=16	=16	=16	=16
8r	.	.	16a/LL	.	8r	.	(16a\LL	cum	.	.
.	.	.	16f/JJ	.	.	.	16f\JJ)	.	.	.
8C/L	.	.	4cc\	.	8c/L	.	4cc\	ple-	.	.
8C/	.	.	.	.	8c/	.	.	.	.	.
8C/J	.	.	8a/	.	8c/J	.	8a\	-na	.	.
8r	.	.	8a/L	.	8r	.	8a\	fi-	.	.
8C/L	.	.	8g/J	.	8c/L	.	8g\	-de	.	.
!	!	!	!	!	!	!	!LO:LB:g=original	!	!	!
8CC/	.	.	4r	.	8c/	.	4r	.	.	.
8C/J	.	.	.	.	8c/J	.	.	.	.	.
=17	=17	=17	=17	=17	=17	=17	=17	=17	=17	=17
8r	.	.	16f/LL	.	8r	.	16f/LL	ho-	.	.
.	.	.	16d/JJ	.	.	.	16d/JJ	.	.	.
8GG/L	.	.	4dd\	.	8G/L	.	4dd\	-no-	.	.
8GG/	.	.	.	.	8G/	.	.	.	.	.
8GG/J	.	.	8f/	.	8G/J	.	8f/	-ris	.	.
!	!	!	!	!	!LO:LB:g=original	!	!	!	!	!
8r	.	.	8f/L	.	8r	.	8f/	De-	.	.
8C/L	.	.	8e/J	.	8c/L	.	8e/	-i	.	.
8CC/	.	.	8r	.	8c/	.	8r	.	.	.
8C/J	.	.	8g/	.	8c/J	.	8g\	pi-	.	.
=18	=18	=18	=18	=18	=18	=18	=18	=18	=18	=18
4FF/	.	.	(8g/	.	4f/	.	8g\	.	1r	.
.	.	.	4a/	.	.	.	4a\	.	.	.
4D/	.	.	.	.	4d/	.	.	.	.	.
.	.	.	8bn/)	.	.	.	8bn\	-a	.	.
4C/	.	.	16cc\LL	.	4c/	.	16cc\LL	in-	.	.
.	.	.	16g\JJ	.	.	.	16g\JJ	.	.	.
.	.	.	4g/	.	.	.	4g\	.	.	.
4BBn/	.	.	.	.	4Bn/	.	.	.	.	.
.	.	.	8dd\	.	.	.	8dd\	.	.	.
=19	=19	=19	=19	=19	=19	=19	=19	=19	=19	=19
!LO:TX:a:t=P:problem=mixed beam	!	!	!	!LO:DY:a	!	!LO:DY:a	!	!	!	!
8C\L	.	.	16ee\LL	f	8c/L	f	16ee\LL	-ten-	2r	.
.	.	.	16cc\	.	.	.	16cc\JJ	.	.	.
8F\	.	.	16ff\	.	8f/	.	16ff\LL	-ti-	.	.
.	.	.	16dd\JJ	.	.	.	16dd\JJ	.	.	.
8G\	.	.	4bn\	.	8g/	.	4bn\	-o-	.	.
8GG/J	.	.	.	.	8G/J	.	.	.	.	.
4C/	.	.	4cc\	.	8c/	.	4cc\	-ne	8r	.
!	!	!	!	!	!	!LO:DY:a	!	!	!	!
.	.	.	.	.	4cc\	p	.	.	4cc\	au-
!	!	!	!	!LO:DY:a	!	!	!	!	!	!
4E-X\	.	.	8e-X/L	p	.	.	4r	.	.	.
.	.	.	8e-/J	.	8cc\	.	.	.	8cc\	-ge
!LO:LB:g=original	!	!	!LO:LB:g=original	!	!	!	!	!	!LO:LB:g=original	!
=20	=20	=20	=20	=20	=20	=20	=20	=20	=20	=20
4D\	.	.	16d/LL	.	8cc\L	.	0r	.	8cc\	haec
.	.	.	16b-/J	.	.	.	.	.	.	.
.	.	.	8a/J	.	16b-\L	.	.	.	16b-\	tu
.	.	.	.	.	16a\JJ	.	.	.	16a\	a
4r	.	.	8g/L	.	8g/L	.	.	.	8g/	De-
.	.	.	8f#X/J	.	8f#X/J	.	.	.	8fn/	-us
8r	.	.	8ee-X\	.	(8ee-X\	.	.	.	8ee-X\L	in
8D\L	.	.	4dd\	.	4dd\	.	.	.	8dd\J	.
8En\	.	.	.	.	.	.	.	.	8dd\L	me
8F#X\J	.	.	8cc\	.	8cc\)	.	.	.	8cc\J	.
=21	=21	=21	=21	=21	=21	=21	=21	=21	=21	=21
!LO:TX:a:t=P:problem=mixed beam	!	!	!	!	!	!	!	!	!	!
8G\L	.	.	(8b-/L	.	(8b-T\	.	.	.	8b-\	do-
8C\	.	.	8c/	.	4cc\	.	.	.	4cc\	.
8D\	.	.	8d/	.	.	.	.	.	.	.
8DD/J	.	.	8d/J)	.	8a\)	.	.	.	8a\	.
!LO:TX:a:t=P:problem=mixed beam	!	!	!	!	!	!	!	!	!	!
8G\L	.	.	(8g/L	.	(8b-T\	.	.	.	8b-\	.
8C\	.	.	8c/	.	4cc\	.	.	.	4cc\	.
8D\	.	.	8d/	.	.	.	.	.	.	.
8DD/J	.	.	8d/J)	.	8a\)	.	.	.	8a\	.
=22	=22	=22	=22	=22	=22	=22	=22	=22	=22	=22
!LO:TX:a:t=P:problem=mixed beam	!	!LO:DY:a	!	!	!	!LO:DY:b	!	!	!	!
8G\L	.	f	(8g/L	.	16b-\LL	f	2r	.	16b-\LL	.
.	.	.	.	.	16gg\	.	.	.	16gg\	.
8C\	.	.	8c/	.	16ff\	.	.	.	16ff\	.
.	.	.	.	.	16ee-Xi\JJ	.	.	.	16ee-X\JJ	.
8D\	.	.	8d/	.	16dd\LL	.	.	.	16dd\LL	.
.	.	.	.	.	16cc\	.	.	.	16cc\	.
8DD/J	.	.	8d/J)	.	16b-\	.	.	.	16b-\	.
.	.	.	.	.	16a\JJ	.	.	.	16a\JJ	.
4GG/	.	.	8g/	.	16b-\LL	.	8r	.	16b-\LL	.
.	.	.	.	.	16a\J	.	.	.	16a\JJ	.
.	.	.	4b-\	.	8g\J	.	4b-\	au-	8g\	-na.
!	!	!LO:DY:t=Pia&colon;	!	!	!	!LO:DY:t=Pia:	!	!	!	!
4D/	.	p	.	.	4d/	p	.	.	4r	.
.	.	.	8b-\	.	.	.	8b-\	.	.	.
!	!	!	!	!	!	!	!LO:LB:g=original	!	!	!
=23	=23	=23	=23	=23	=23	=23	=23	=23	=23	=23
4C/	.	.	8b-\L	.	4c/	.	8b-\	-ge-	0r	.
.	.	.	16a\L	.	.	.	16a\LL	-bo	.	.
.	.	.	16g\JJ	.	.	.	16g\JJ	.	.	.
4r	.	.	8f/L	.	8f/L	.	8f/	so-	.	.
.	.	.	8e/J	.	8en/J	.	8e/	-lum	.	.
!	!	!	!	!	!LO:TX:a:t=P:problem=mixed beam	!	!	!	!	!
8r	.	.	(8dd\	.	8dd\L	.	8dd\	mi-	.	.
8C/L	.	.	4cc\)	.	8c/	.	4cc\	.	.	.
8D/	.	.	.	.	8d/	.	.	.	.	.
8E/J	.	.	8b-\	.	8e/J	.	8b-\	-hi	.	.
=24	=24	=24	=24	=24	=24	=24	=24	=24	=24	=24
!LO:TX:a:t=P:problem=mixed beam	!	!	!	!	!	!	!	!	!	!
8F\L	.	.	8a\	.	8f/L	.	8a\	pro-	.	.
8BB-\	.	.	4b-\	.	8B-/	.	4b-\	.	.	.
8C\	.	.	.	.	8c/	.	.	.	.	.
8CC/J	.	.	8g\	.	8c/J	.	8g\	-num	.	.
!LO:TX:a:t=P:problem=mixed beam	!	!	!	!LO:LB:g=original	!	!	!	!	!	!
8F\L	.	.	8a\	.	8f/L	.	(8a\L	.	.	.
8BB-\	.	.	4b-\	.	8B-/	.	8b-\J)	cor-	.	.
8C\	.	.	.	.	8c/	.	8b-\	-tu-	.	.
8CC/J	.	.	8g\	.	8c/J	.	8g\	-um	.	.
=25	=25	=25	=25	=25	=25	=25	=25	=25	=25	=25
!LO:TX:a:t=P:problem=mixed beam	!	!LO:DY:a	!	!LO:DY:a	!	!LO:DY:a	!	!	!	!
8F\L	.	f	16a\LL	f	8f/L	f	16a\LL	.	2r	.
.	.	.	16ff\	.	.	.	16ff\	.	.	.
8BB-\	.	.	16ee\	.	8B-/	.	16ee\	do-	.	.
.	.	.	16dd\JJ	.	.	.	16dd\JJ	.	.	.
8C\	.	.	16cc\LL	.	8c/	.	16cc\LL	.	.	.
.	.	.	16b-\	.	.	.	16b-\	.	.	.
8CC/J	.	.	16a\	.	8c/J	.	16a\	.	.	.
.	.	.	16g\JJ	.	.	.	16g\JJ	.	.	.
4FF/	.	.	16a/LL	.	4f/	.	16a\LL	.	4r	.
.	.	.	16g/J	.	.	.	16g\JJ	.	.	.
.	.	.	8f/J	.	.	.	8f/	-na	.	.
8r	.	.	8cc\L	.	8cc\L	.	4r	.	8cc\	Sa-
!	!	!LO:DY:t=Pian&colon;	!	!	!	!LO:DY:a	!	!	!	!
8E\	.	p	8e\J	.	8cc\J	p	.	.	8cc\	-cro
!	!	!	!LO:LB:g=original	!	!	!	!	!	!LO:LB:g=original	!
=26	=26	=26	=26	=26	=26	=26	=26	=26	=26	=26
!	!	!	!	!LO:DY:a	!	!	!	!	!	!
4D\	.	.	4d/	p	8cc\L	.	2r	.	8cc\	ti-
.	.	.	.	.	16bn\L	.	.	.	16bn\LL	-bi
.	.	.	.	.	16cc\JJ	.	.	.	16cc\JJ	.
8r	.	.	8r	.	8dd\L	.	.	.	8dd\	lae-
8F\	.	.	8f/	.	8dd\J	.	.	.	8dd\	-tus
!LO:LB:g=original	!	!	!	!	!	!	!LO:LB:g=original	!	!	!
4E\	.	.	4e/	.	8dd\L	.	4r	.	8dd\	to-
.	.	.	.	.	8cc\	.	.	.	8cc\	-tum
!	!	!	!	!LO:DY:a	!	!	!	!	!	!
8r	.	.	8cc\L	f	8ee\	.	8cc\	sed	8ee\	ad
8C/	.	.	8cc\J	.	8ee\J	.	8cc\	plus	8ee\	huc
=27	=27	=27	=27	=27	=27	=27	=27	=27	=27	=27
4G\	.	.	8cc\L	.	(8ee\L	.	8cc\L	re-	8ee\	plu-
.	.	.	16bn\L	.	16dd\L	.	16.bn\L	-qui-	16dd\LL	.
.	.	.	16cc\JJ	.	16ee\JJ)	.	.	.	16ee\JJ	.
.	.	.	.	.	.	.	32cc\JJk	.	.	.
8r	.	.	8dd\L	.	8ff\L	.	8dd\	.	8ff\	-ra
8GG/	.	.	8dd\J	.	8ff\J	.	8dd\	.	8ff\	pro
4C/	.	.	8dd\L	.	8ff\L	.	8dd\L	.	8ff\L	po-
.	.	.	8cc\J	.	8ee\J	.	8cc\J	.	8ee\J	.
*	*	*	*tuplet	*	*	*	*Xtuplet	*	*Xtuplet	*
!	!	!	!LO:TUP:a:problem=klamra łukowa	!	!LO:TUP:a:problem=klamra łukowa	!	!	!	!LO:TUP:a:problem=klamra łukowa	!
4r	.	.	24ee\LL	.	24gg\LL	.	24ee\LL	.	24gg\LL	.
.	.	.	24dd\	.	24ff\	.	24dd\	.	24ff\	.
.	.	.	24cc\JJ	.	24ee\JJ	.	24cc\JJ	.	24ee\JJ	.
.	.	.	16ee'\LL	.	16gg'\LL	.	16ee'\LL	.	16gg'\LL	.
.	.	.	16ee'\JJ	.	16gg'\JJ	.	16ee'\JJ	.	16gg'\JJ	.
=28	=28	=28	=28	=28	=28	=28	=28	=28	=28	=28
4G\	.	.	8ee\L	.	8gg\L	.	8ee\L	.	(8gg\L	.
.	.	.	8dd\J	.	8ff\J	.	8dd\J	.	8ff\J)	.
!	!	!	!LO:TUP:a:problem=klamra łukowa	!	!LO:TUP:a:problem=klamra łukowa	!	!	!	!LO:TUP:a:problem=klamra łukowa	!
4r	.	.	24dd\LL	.	24ff\LL	.	24dd\LL	.	24ff\LL	.
.	.	.	24cc\	.	24ee\	.	24cc\	.	24ee\	.
.	.	.	24bn\JJ	.	24dd\JJ	.	24bn\JJ	.	24dd\JJ	.
.	.	.	16dd'\LL	.	16ff\LL	.	16dd'\LL	.	16ff'\LL	.
.	.	.	16dd'\JJ	.	16ff\JJ	.	16dd'\JJ	.	16ff'\JJ	.
4C/	.	.	(8dd\L	.	(8ff\L	.	8dd\L	.	8ff\L	.
.	.	.	8cc\J)	.	8ee\J)	.	8cc\J	.	8ee\J	.
!	!	!	!LO:TUP:a:problem=klamra łukowa	!	!LO:TUP:a:problem=klamra łukowa, kropka zamiast numeru	!	!	!	!	!
4r	.	.	24ee\LL	.	24gg\LL	.	24ee\LL	.	24gg\LL	.
.	.	.	24dd\	.	24ff\	.	24dd\	.	24ff\	.
.	.	.	24cc\JJ	.	24ee\JJ	.	24cc\JJ	.	24ee\JJ	.
.	.	.	16ee'\LL	.	16gg'\LL	.	16ee'\LL	.	16gg\LL	.
.	.	.	16ee'\JJ	.	16gg'\JJ	.	16ee'\JJ	.	16gg\JJ	.
!	!	!	!	!	!	!	!	!	!LO:LB:g=original	!
=29	=29	=29	=29	=29	=29	=29	=29	=29	=29	=29
*	*	*	*	*	*Xtuplet	*	*	*	*	*
!	!	!	!LO:TUP:a:problem=klamra łukowa	!	!LO:TUP:a:problem=klamra łukowa	!	!	!	!	!
4F\	.	.	24dd\LL	.	24ff\LL	.	24dd\LL	.	24ff\LL	.
.	.	.	24cc\	.	24ee\	.	24cc\	.	24ee\	.
.	.	.	24b-\JJ	.	24dd\JJ	.	24b-\JJ	.	24dd\JJ	.
.	.	.	16dd'\LL	.	16ff'\LL	.	16dd'\LL	.	16ff'\LL	.
.	.	.	16dd'\JJ	.	16ff'\JJ	.	16dd'\JJ	.	16ff'\JJ	.
*	*	*	*Xtuplet	*	*	*	*	*	*	*
!	!	!	!	!	!LO:TUP:a:problem=klamra łukowa	!	!LO:LB:g=original	!	!	!
4F#X\	.	.	24cc\LL	.	24ee\LL	.	24cc\LL	.	24ee\LL	.
.	.	.	24bn\	.	24dd\	.	24bn\	.	24dd\	.
.	.	.	24a\JJ	.	24cc\JJ	.	24a\JJ	.	24cc\JJ	.
.	.	.	16cc'\LL	.	16ee'\LL	.	16cc'\LL	.	16ee'\LL	.
.	.	.	16cc'\JJ	.	16ee'\JJ	.	16cc'\JJ	.	16ee'\JJ	.
4G\	.	.	(8cc\L	.	(8ee\L	.	8cc\	.	8ee\L	-no
.	.	.	8bn\J)	.	8dd\J)	.	8bn\	-ro	8dd\J	.
8BBn/L	.	.	(>8Bn/L	.	(8dd\L	.	4r	.	8dd\L	pro-
8C/J	.	.	8c/J)	.	8ee\J)	.	.	.	8ee\J	.
!	!	!	!	!	!LO:LB:g=original	!	!	!	!	!
=30	=30	=30	=30	=30	=30	=30	=30	=30	=30	=30
*	*	*	*	*	*tuplet	*	*	*	*tuplet	*
!	!	!	!	!	!LO:TUP:a:problem=klamra łukowa	!	!	!	!LO:TUP:a:problem=klamra łukowa	!
4GG/	.	.	4g/	.	24bn\LL	.	4r	.	24bn\LL	-po-
.	.	.	.	.	24cc\	.	.	.	24cc\	.
.	.	.	.	.	24dd\JJ	.	.	.	24dd\JJ	.
.	.	.	.	.	8dd\	.	.	.	8dd\	-no
!	!	!	!	!LO:DY:a	!	!	!	!	!	!
8Bn\L	.	.	8dd\L	f	8bn\L	.	8dd\	hoc	4r	.
8c\J	.	.	8ee\J	.	8cc\J	.	8ee\	re-	.	.
*	*	*	*tuplet	*	*	*	*	*	*	*
!	!	!	!LO:TUP:a:problem=klamra łukowa	!	!	!	!	!	!	!
4G\	.	.	24bn\LL	.	4g/	.	24bn\LL	.	4r	.
.	.	.	24cc\	.	.	.	24cc\	.	.	.
.	.	.	24dd\JJ	.	.	.	24dd\JJ	-qui-	.	.
.	.	.	8dd\	.	.	.	8dd\	-ro	.	.
!	!	!	!	!LO:DY:a	!	!LO:DY:t=fort	!	!	!	!
8BBn/L	.	.	16g/LL	p	8dd\L	f	4r	.	8dd\	mun-
.	.	.	16d/	.	.	.	.	.	.	.
8C/J	.	.	16e/	.	8ee\J	.	.	.	8ee\	-dum
.	.	.	16c/JJ	.	.	.	.	.	.	.
!	!	!	!LO:LB:g=original	!	!	!	!	!	!	!
=31	=31	=31	=31	=31	=31	=31	=31	=31	=31	=31
*	*	*	*	*	*	*	*	*	*Xtuplet	*
!	!	!	!	!	!LO:TUP:a:problem=klamra łukowa	!	!	!	!	!
4GG/	.	.	4g/	.	24bn\LL	.	4r	.	24bn\LL	pi-
.	.	.	.	.	24cc\	.	.	.	24cc\	.
.	.	.	.	.	24dd\JJ	.	.	.	24dd\JJ	.
.	.	.	.	.	8dd\|	.	.	.	8dd\	-um
!	!	!	!	!LO:DY:a	!	!LO:DY:t=Pia:	!	!	!	!
8Bn\L	.	.	8dd\L	f	8bn\L	p	8dd\	mi-	4r	.
8c\J	.	.	8ee\J	.	8cc\J	.	8ee\	-hi	.	.
!	!	!	!LO:TUP:a:problem=klamra łukowa	!	!	!	!	!	!	!
4G\	.	.	24bn\LL	.	4g/	.	(24bn\LL	.	2r	.
.	.	.	24cc\	.	.	.	24cc\)	.	.	.
.	.	.	24dd\J	.	.	.	24dd\JJ	gra-	.	.
.	.	.	8dd\J|	.	.	.	8dd\	-tum	.	.
4r	.	.	4r	.	4r	.	4r	.	.	.
=32	=32	=32	=32	=32	=32	=32	=32	=32	=32	=32
!	!	!LO:DY:t=for&colon;	!	!	!	!LO:DY:a	!	!	!	!
4BBn/	.	f	16.dd\LL	.	16.ff\LL	f	16.dd\LL	pi-	16.ff\LL	pi-
.	.	.	32ee\JJk	.	32gg\JJk	.	32ee\JJk	.	32gg\JJk	.
.	.	.	4ff\	.	4aa\	.	4ff\	.	4aa\	.
!	!	!LO:DY:t=Po&colon;	!	!	!	!	!	!	!	!
4BB/	.	p	.	.	.	.	.	.	.	.
.	.	.	8dd\	.	8ff\	.	8dd\	.	8ff\	.
!	!	!	!	!LO:DY:a	!	!LO:DY:t=Pia:	!	!	!	!
4C/	.	.	16.cc\LL	p	16.ee\LL	p	16.cc\LL	.	32.ee\LLL	.
.	.	.	.	.	.	.	.	.	64ff\JJK	.
.	.	.	.	.	.	.	.	.	8.ff\J	.
.	.	.	32dd\JK	.	32ff\JK	.	32dd\JK	.	.	.
.	.	.	8ee\J	.	8ff\J	.	8ee\J	.	.	.
8r	.	.	4ee\	.	4gg\	.	4ee\	-um	4gg\	-um
32C\LLL	.	.	.	.	.	.	.	.	.	.
32D\	.	.	.	.	.	.	.	.	.	.
32E\	.	.	.	.	.	.	.	.	.	.
32F\JJJ	.	.	.	.	.	.	.	.	.	.
!LO:LB:g=original	!	!	!	!	!	!	!LO:LB:g=original	!	!LO:LB:g=original	!
=33	=33	=33	=33	=33	=33	=33	=33	=33	=33	=33
4G\	.	.	(8dd\	.	8ff\	.	8dd\	to-	8ff\	to-
.	.	.	4cc\	.	4ee\	.	4cc\	-tum	4ee\	.
4GG/	.	.	.	.	.	.	.	.	.	.
.	.	.	8bn\)	.	8dd\	.	8bn\	.	8dd\	-tum
!	!	!	!	!LO:DY:a	!	!	!	!	!	!
4C/	.	.	16.cc\LL	f	16.ee\LL	.	16.cc\LL	.	16.ee\LL	.
.	.	.	32dd\JK	.	32ff\JK	.	32dd\JK	me-	32ff\JK	tu-
.	.	.	8dd\J	.	8ffT\J	.	8dd\J	.	8ff\J	.
8r	.	.	4ee\	.	4gg\	.	4ee\	-o	4gg\	-o
!	!	!LO:DY:t=fort.	!	!	!	!	!	!	!	!
32C\LLL	.	f	.	.	.	.	.	.	.	.
32D\	.	.	.	.	.	.	.	.	.	.
32E\	.	.	.	.	.	.	.	.	.	.
32F\JJJ	.	.	.	.	.	.	.	.	.	.
=34	=34	=34	=34	=34	=34	=34	=34	=34	=34	=34
4G\	.	.	8dd\	.	(8ff\	.	8dd\	do-	8ff\	do-
.	.	.	4cc\	.	4ee\)	.	4cc\	.	4ee\	.
4GG/	.	.	.	.	.	.	.	.	.	.
.	.	.	8bn\	.	8dd\	.	8bn\	.	8dd\	.
*	*	*	*Xtuplet	*	*	*	*	*	*	*
!	!	!LO:DY:t=Pia&colon;	!LO:TUP:a:problem=klamra łukowa	!	!LO:TUP:a:problem=klamra łukowa	!	!	!	!	!
4C/	.	p	24cc\LL	.	24ee\LL	.	24cc\LL	.	24ee\LL	.
.	.	.	24dd\	.	24ff\	.	24dd\	.	24ff\	.
.	.	.	24ee\JJ	.	24gg\JJ	.	24ee\JJ	.	24gg\JJ	.
!	!	!	!LO:TUP:a:problem=klamra łukowa	!	!LO:TUP:a:problem=klamra łukowa	!	!	!	!	!
.	.	.	24ff\LL	.	24aa\LL	.	24ff\LL	.	24aa\LL	.
.	.	.	24ee\	.	24gg\	.	24ee\	.	24gg\	.
.	.	.	24dd\JJ	.	24ff\JJ	.	24dd\JJ	.	24ff\JJ	.
!	!	!	!LO:TUP:a:problem=klamra łukowa	!	!LO:TUP:a:problem=klamra łukowa	!	!	!	!	!
4r	.	.	24cc\LL	.	24ee\LL	.	24cc\LL	.	24ee\LL	.
.	.	.	24dd\	.	24ff\	.	24dd\	.	24ff\	.
.	.	.	24ee\JJ	.	24gg\JJ	.	24ee\JJ	.	24gg\JJ	.
!	!	!	!LO:TUP:a:problem=klamra łukowa	!	!LO:TUP:a:problem=klamra łukowa	!	!	!	!	!
.	.	.	24ff\LL	.	24aa\LL	.	24ff\LL	.	24aa\LL	.
.	.	.	24ee\	.	24gg\	.	24ee\	.	24gg\	.
.	.	.	24dd\JJ	.	24ff\JJ	.	24dd\JJ	-no	24ff\JJ	-no
!	!	!	!	!	!LO:LB:g=original	!	!	!	!	!
=35	=35	=35	=35	=35	=35	=35	=35	=35	=35	=35
!	!	!	!	!	!	!LO:DY:t=fort	!	!	!	!
8r	.	.	(8cc\L	.	16ee\LL	f	8cc\	me	8ee\	con-
.	.	.	.	.	16ee\	.	.	.	.	.
!	!	!LO:DY:t=for&colon;	!	!	!	!	!	!	!	!
8BBn/L	.	f	8ff\)	.	16aa\	.	8ff\	fa-	8aa\	-se-
.	.	.	.	.	16aa\JJ	.	.	.	.	.
8C/	.	.	(8ee\	.	16gg\LL	.	8ee\	-ctu-	8gg\	-cra-
.	.	.	.	.	16ff\	.	.	.	.	.
8F/J	.	.	8dd\J)	.	16ff\	.	8dd\	-ru(m)	8ff\	-re
.	.	.	.	.	16ff\JJ	.	.	.	.	.
!LO:TX:a:t=P:problem=mixed beam	!	!	!	!	!	!	!	!	!	!
8G\L	.	.	8.cc\L	.	8.ee\L	.	8.cc\L	spon-	8.ee\L	.
8F\	.	.	.	.	.	.	.	.	.	.
.	.	.	16dd\Jk	.	16ff\Jk	.	16dd\Jk	.	16ff\Jk	cu-
8G\	.	.	4bn\	.	4dd\	.	8.bn\	.	8.dd\	.
8GG/J	.	.	.	.	.	.	.	.	.	.
.	.	.	.	.	.	.	16b\	-de-	16dd\	-pi-
!	!	!	!LO:SIC:znaczek wyglądający jak custos po kresce taktowej:v	!	!	!	!	!	!	!
!	!	!	!LO:LB:g=original	!	!	!	!	!	!	!
=36	=36	=36	=36	=36	=36	=36	=36	=36	=36	=36
!	!	!LO:DY:a:t=fortiſsimo	!LO:TUP:a:problem=klamra łukowa	!	!LO:TUP:a:problem=klamra łukowa	!	!	!	!	!
8C/L	.	ff	24cc\LL	.	24ee\LL	.	4cc\	-o	4cc\	-o
.	.	.	24ff\	.	24ff\	.	.	.	.	.
.	.	.	24gg\JJ	.	24gg\JJ	.	.	.	.	.
!	!	!	!	!	!LO:TUP:a:problem=klamra łukowa	!LO:DY:b:t=fortiſ:	!	!	!	!
8C/	.	.	24aa\LL	.	24aa\LL	ff	.	.	.	.
.	.	.	24gg\	.	24gg\	.	.	.	.	.
.	.	.	24ff\JJ	.	24ff\JJ	.	.	.	.	.
!	!	!	!	!	!LO:TUP:a:problem=klamra łukowa	!	!	!	!	!
8C/	.	.	24ee\LL	.	24ee\LL	.	4r	.	4r	.
.	.	.	24ff\	.	24ff\	.	.	.	.	.
.	.	.	24gg\JJ	.	24gg\JJ	.	.	.	.	.
!	!	!	!	!	!LO:TUP:a:problem=klamra łukowa	!	!	!	!	!
8C/J	.	.	24aa\LL	.	24aa\LL	.	.	.	.	.
.	.	.	24gg\	.	24gg\	.	.	.	.	.
.	.	.	24ff\JJ	.	24ff\JJ	.	.	.	.	.
8C\L	.	.	8ee\L|	.	8ee\L	.	2r	.	2r	.
8D\	.	.	8bbn\|	.	8bbn\	.	.	.	.	.
8E\	.	.	8ccc\|	.	8ccc\	.	.	.	.	.
8F\J	.	.	8ff\J|	.	8ff\J	.	.	.	.	.
=37	=37	=37	=37	=37	=37	=37	=37	=37	=37	=37
!LO:TX:a:t=P:problem=mixed beam	!	!	!	!	!LO:TUP:a:problem=klamra łukowa	!	!LO:TX:a:t=1	!	!	!
8G\L	.	.	24ee\LL	.	24ee\LL	.	1r	.	0r	.
.	.	.	24ccc\	.	24ccc\	.	.	.	.	.
.	.	.	24bbn\JJ	.	24bbn\JJ	.	.	.	.	.
!	!	!	!	!	!LO:TUP:a:problem=klamra łukowa	!	!	!	!	!
8F\	.	.	24aa\LL	.	24aa\LL	.	.	.	.	.
.	.	.	24gg\	.	24gg\	.	.	.	.	.
.	.	.	24ff\JJ	.	24ff\JJ	.	.	.	.	.
8G\	.	.	4dd\	.	4dd\	.	.	.	.	.
8GG/J	.	.	.	.	.	.	.	.	.	.
!	!	!	!	!	!LO:TUP:b:problem=klamra łukowa	!	!	!	!	!
4CC/	.	.	24cc\LL	.	24cc/LL	.	.	.	.	.
.	.	.	24g\	.	24g/	.	.	.	.	.
.	.	.	24f\JJ	.	24f/JJ	.	.	.	.	.
!	!	!	!	!	!LO:TUP:b:problem=klamra łukowa	!	!	!	!	!
.	.	.	24e/LL	.	24e/LL	.	.	.	.	.
.	.	.	24f/	.	24f/	.	.	.	.	.
.	.	.	24g/JJ	.	24g/JJ	.	.	.	.	.
4r	.	.	4c/	.	4c/	.	.	.	.	.
!	!	!	!	!	!	!	!LO:LB:g=original	!	!	!
=38	=38	=38	=38	=38	=38	=38	=38	=38	=38	=38
!	!	!	!	!LO:DY:a	!	!	!	!	!	!
8C/L	.	p	4g/	p	8c/L	.	4g\	E-	.	.
8C/	.	.	.	.	8c/	.	.	.	.	.
!	!	!	!	!	!	!LO:DY:a	!	!	!	!
8BBn/	.	.	4g/	.	8Bn/	p	4g\	-go	.	.
8BB/J	.	.	.	.	8B/J	.	.	.	.	.
8AA/L	.	.	8.a/L	.	8A/L	.	8.a\	spon-	.	.
8AA/	.	.	.	.	8A/	.	.	.	.	.
.	.	.	16b-/Jk	.	.	.	16bn\	-de-	.	.
8AA/	.	.	8cc\L	.	8A/	.	8cc\	-o	.	.
8AA/J	.	.	16bni\L	.	8A/J	.	16bn\LL	et	.	.
.	.	.	16a\JJ	.	.	.	16a\JJ	.	.	.
!LO:LB:g=original	!	!	!	!	!	!	!	!	!	!
=39	=39	=39	=39	=39	=39	=39	=39	=39	=39	=39
8BBn/L	.	.	8.g/L	.	8Bn/L	.	8g\L	.	1r	.
8BB/	.	.	.	.	8B/	.	16.bn\L	quis	.	.
.	.	.	32bn/LL	.	.	.	.	.	.	.
.	.	.	32cc/JJJ	.	.	.	32cc\JJk	.	.	.
!	!	!	!LO:TX:a:t=P:problem=mixed beam	!	!	!	!	!	!	!
8BB/	.	.	8dd\L	.	8B/	.	8dd\L	ne-	.	.
8BB/J	.	.	8f/J	.	8B/J	.	8f\J	.	.	.
!	!	!	!	!	!	!LO:DY:a	!	!	!	!
8.C/L	.	.	8f/L	.	8.c/L	f	8f/	-ga-	.	.
.	.	.	8e/J	.	.	.	8e/	-bit	.	.
16D/Jk	.	.	.	.	16d/Jk	.	.	.	.	.
!	!	!LO:DY:a	!	!LO:DY:a	!	!	!	!	!	!
16C/LL	.	f	16c/LL	f	16c/LL	.	4r	.	.	.
!LO:SIC:s=16BB-:v	!	!	!	!	!LO:SIC:s=16B-:v	!	!	!	!	!
16BB/	.	.	16B-/	.	16B/	.	.	.	.	.
16AA/	.	.	16A/	.	16A/	.	.	.	.	.
16GG/JJ	.	.	16G/JJ	.	16G/JJ	.	.	.	.	.
!	!	!	!	!	!LO:LB:g=original	!	!	!	!LO:LB:g=original	!
=40	=40	=40	=40	=40	=40	=40	=40	=40	=40	=40
!LO:TX:a:t=P:problem=mixed beam	!	!LO:DY:a	!	!LO:DY:a	!	!LO:DY:a	!	!	!	!
8FF/L	.	p	8f/L	p	4cc\	p	0r	.	4cc\	Spon-
8F\	.	.	8f/	.	.	.	.	.	.	.
8E\	.	.	8e/	.	4cc\	.	.	.	4cc\	-des
8E\J	.	.	8e/J	.	.	.	.	.	.	.
8D\L	.	.	8d/L	.	(8.dd\L	.	.	.	8.dd\	Do-
8D\	.	.	8d/	.	.	.	.	.	.	.
.	.	.	.	.	16ee\Jk)	.	.	.	16ee\	-mi-
8D\	.	.	8d/	.	(8ff\L	.	.	.	8ff\	-ne
8D\J	.	.	8d/J	.	16ee\L	.	.	.	16ee\LL	quis
.	.	.	.	.	16dd\JJ)	.	.	.	16dd\JJ	.
!	!	!	!LO:LB:g=original	!	!	!	!	!	!	!
=41	=41	=41	=41	=41	=41	=41	=41	=41	=41	=41
8E\L	.	.	8e/L	.	8cc\L	.	.	.	8cc\L	.
8E\	.	.	8e/	.	16.ee\L	.	.	.	16.ee\L	fi-
.	.	.	.	.	32ff\JJk	.	.	.	32ff\JJk	.
8E\	.	.	8e/	.	8gg\L	.	.	.	8gg\	-dem
8E\J	.	.	8e/J	.	8b-\J	.	.	.	8b-\	non
8r	.	.	8r	.	8b-\L	.	.	.	8b-\	da-
!LO:TX:a:t=P:problem=mixed beam	!	!	!	!	!	!	!	!	!	!
8F\L	.	.	8f/L	.	8a\J	.	.	.	8a\	-bit
8FF/	.	.	8f/	.	4r	.	.	.	4r	.
8F\J	.	.	8f/J	.	.	.	.	.	.	.
=42	=42	=42	=42	=42	=42	=42	=42	=42	=42	=42
8r	.	.	16b-X/LL	.	(16dd\LL	.	16b-\LL	me	16dd\LL	te
.	.	.	16g/JJ	.	16b-\JJ)	.	16g\JJ	.	16b-\JJ	.
8F\L	.	.	4dd\	.	4ff\	.	4dd\	.	4ff\	.
8F\	.	.	.	.	.	.	.	.	.	.
8F\J	.	.	8b-\|	.	8dd\	.	8b-\	fa-	8dd\	a-
8r	.	.	8b-\L	.	8dd\L	.	8b-\	-ctu-	8dd\	-ctu-
!LO:TX:a:t=P:problem=mixed beam	!	!	!	!	!	!	!	!	!	!
8F\L	.	.	8a\J	.	8cc\J	.	8a\	-rum	8cc\	-rum
8FF/	.	.	4r	.	4r	.	4r	.	4r	.
8F\J	.	.	.	.	.	.	.	.	.	.
=43	=43	=43	=43	=43	=43	=43	=43	=43	=43	=43
8r	.	.	16g/LL	.	(16b-\LL	.	16g/LL	cor-	16b-\LL	ti-
.	.	.	16e/JJ	.	16g\JJ)	.	16e/JJ	.	16g\JJ	.
8C/L	.	.	4b-/	.	4gg\	.	4b-\	.	4gg\	.
8C/	.	.	.	.	.	.	.	.	.	.
8C/J	.	.	8g/	.	8b-\	.	8g\	-con-	8b-\	-bi
8r	.	.	8g/L	.	8b-\L	.	8g\	-tri-	8b-\	gra-
!LO:TX:a:t=P:problem=mixed beam	!	!	!	!	!	!	!	!	!	!
8F\L	.	.	8f/J	.	8a\J	.	8f/	-tu(m)	8a\	-tum
8FF/	.	.	8r	.	8r	.	8r	.	8r	.
8F\J	.	.	8a/	.	8cc\	.	8a\	pi-	8cc\	a-
!	!	!	!	!	!	!	!	!	!LO:LB:g=original	!
=44	=44	=44	=44	=44	=44	=44	=44	=44	=44	=44
4BB-/	.	.	8a/	.	(8cc\	.	8a\	.	8cc\	-mo-
.	.	.	4b-/	.	4dd\)	.	4b-\	.	4dd\	.
4G\	.	.	.	.	.	.	.	.	.	.
.	.	.	8cc/	.	8ee\	.	8cc\	-um	8ee\	-re
4F\	.	.	8a/	.	(16ff\LL	.	8a\	mi-	16ff\LL	tu-
.	.	.	.	.	16cc\JJ	.	.	.	16cc\JJ	.
.	.	.	4a/	.	4cc\)	.	4a\	.	4cc\	.
4E\	.	.	.	.	.	.	.	.	.	.
.	.	.	8g/	.	8b-\	.	8g\	-hi	8b-\	-o
!	!	!	!	!	!	!	!LO:LB:g=original	!	!	!
=45	=45	=45	=45	=45	=45	=45	=45	=45	=45	=45
8F\L	.	.	8f/L	.	8a/L	.	(8f/L	gra-	8a\	in-
8BB-\J	.	.	8g/J	.	8b-/J	.	8g/J)	.	8b-\	-flam-
!LO:LB:g=original	!	!	!	!	!	!	!	!	!	!
8r	.	.	4f/	.	4a/	.	4f/	.	4a\	-ma-
8BBn/	.	.	.	.	.	.	.	.	.	.
8C/L	.	.	4e/	.	4g/	.	4e/	-tu(m)	4g\	-tum
8CC/J	.	.	.	.	.	.	.	.	.	.
8r	.	.	8g/L	.	4r	.	8g\	mi-	4r	.
!	!	!	!	!LO:DY:b	!	!	!	!	!	!
8E\	.	.	8cc/J	f	.	.	8cc\	-hi	.	.
!	!	!	!	!	!LO:LB:g=original	!	!	!	!	!
=46	=46	=46	=46	=46	=46	=46	=46	=46	=46	=46
8D/L	.	.	(16cc/LL	.	8d/L	.	(16cc\LL	gra-	2r	.
.	.	.	16bn/)	.	.	.	16bn\JJ)	.	.	.
8C/	.	.	(16b/	.	8c/	.	(16b\LL	.	.	.
.	.	.	16a/JJ)	.	.	.	16a\JJ)	.	.	.
8BB-/	.	.	(16a/LL	.	8Bn/	.	(16a\LL	.	.	.
.	.	.	16g/)	.	.	.	16g\JJ)	.	.	.
8AA/J	.	.	(16g/	.	8G/J	.	(16g\LL	.	.	.
.	.	.	16f/JJ)	.	.	.	16f\JJ)	.	.	.
!	!	!	!	!	!	!LO:DY:a	!	!	!	!
4C/	.	.	8f/L	.	4c/	f	8f/	.	4r	.
.	.	.	8e/J	.	.	.	8e/	-tum	.	.
8r	.	.	(8cc\L	.	8cc\L	.	4r	.	8cc\	ti-
8A\	.	.	8a\J)	.	8ff\J	.	.	.	8ff\	-bi
=47	=47	=47	=47	=47	=47	=47	=47	=47	=47	=47
8G\L	.	.	(8g/L	.	(16ff\LL	.	2r	.	16ff\LL	Cha-
.	.	.	.	.	16ee\)	.	.	.	16ee\	.
8F\	.	.	8f/)	.	(16ee\	.	.	.	16ee\	.
.	.	.	.	.	16dd\JJ)	.	.	.	16dd\JJ	.
8E\	.	.	(8e/	.	(16dd\LL	.	.	.	16dd\LL	.
.	.	.	.	.	16cc\)	.	.	.	16cc\	.
8D\J	.	.	8c/J)	.	(16cc\	.	.	.	16cc\	.
.	.	.	.	.	16b-\JJ)	.	.	.	16b-\JJ	.
4F\	.	.	4f/	.	(8b-\L	.	4r	.	8b-\	.
.	.	.	.	.	8a\J)	.	.	.	8a\	-rum
!	!	!	!	!LO:DY:a	!	!	!	!	!	!
8r	.	.	8a/L	f	8cc\L	.	8a\	mi-	8cc\	ti-
!	!	!	!	!	!	!LO:DY:a	!	!	!	!
8F\	.	.	8a/J	.	8cc\J	f	8a\	-hi	8cc\	-bi
!	!	!	!LO:LB:g=original	!	!	!	!	!	!	!
=48	=48	=48	=48	=48	=48	=48	=48	=48	=48	=48
*	*	*	*	*	*Xtuplet	*	*	*	*	*
!	!	!	!	!	!	!LO:DY:a	!LO:TUP:a:problem=klamra łukowa	!	!	!
4BB-/	.	.	24b-\LL	.	24dd\LL	p	24b-\LL	gra-	24dd\LL	cha-
.	.	.	24a\	.	24cc\	.	24a\	.	24cc\	.
.	.	.	24g\JJ	.	24b-\JJ	.	24g\JJ	.	24b-\JJ	.
.	.	.	16b-'\LL	.	16dd'\LL	.	16b-'\LL	.	16dd'\LL	.
.	.	.	16b-'\JJ	.	16dd'\JJ	.	16b-'\JJ	.	16dd'\JJ	.
4BB-/	.	.	24b-\LL	.	24dd\LL	.	24b-\LL	.	24dd\LL	.
.	.	.	24a\	.	24cc\	.	24a\	.	24cc\	.
.	.	.	24g\JJ	.	24b-\JJ	.	24g\JJ	.	24b-\JJ	.
.	.	.	16b-'\LL	.	16dd'\LL	.	16b-'\LL	.	16dd\LL	.
.	.	.	16b-'\JJ	.	16dd'\JJ	.	16b-'\JJ	.	16dd\JJ	.
8r	.	.	16.b-\LL	.	16.dd\LL	.	16.b-\LL	.	16.dd\LL	.
.	.	.	32dd\JJk	.	32ff\JJk	.	32dd\JJk	.	32ff\JJk	.
8AA/L	.	.	4cc\	.	4ee-X\	.	4cc\	.	4ee-X\	.
8AA/	.	.	.	.	.	.	.	.	.	.
!	!	!	!	!	!	!	!	!	!LO:LB:g=original	!
8BB-/J	.	.	8b-\	.	8dd\	.	8b-\	.	8dd\	.
=49	=49	=49	=49	=49	=49	=49	=49	=49	=49	=49
*	*	*	*	*	*tuplet	*	*	*	*	*
4F\	.	.	24a/LL	.	24cc\LL	.	24a\LL	.	24cc\LL	.
.	.	.	24g/	.	24b-\	.	24g\	.	24b-\	.
.	.	.	24f/JJ	.	24a\JJ	.	24f\JJ	.	24a\JJ	.
.	.	.	16a'/LL	.	16cc'\LL	.	16a'\LL	.	16cc\LL	.
.	.	.	16a'/JJ	.	16cc'\JJ	.	16a'\JJ	.	16cc\JJ	.
*	*	*	*	*	*Xtuplet	*	*	*	*	*
4FF/	.	.	24a/LL	.	24cc\LL	.	24a\LL	.	24cc\LL	.
.	.	.	24g/	.	24b-\	.	24g\	.	24b-\	.
.	.	.	24f/JJ	.	24a\JJ	.	24f\JJ	.	24a\JJ	.
!	!	!	!	!	!	!	!LO:LB:g=original	!	!	!
.	.	.	16a'/LL	.	16cc'\LL	.	16a'\LL	.	16cc\LL	.
.	.	.	16a'/JJ	.	16cc'\JJ	.	16a'\JJ	.	16cc\JJ	.
8r	.	.	16.a/LL	.	16.cc\LL	.	16.a\LL	.	16.cc\LL	.
.	.	.	32cc/JJk	.	32ee-X\JJk	.	32cc\JJk	.	32ee-X\JJk	.
8F\L	.	.	4b-/	.	4dd\	.	4b-\	.	4dd\	.
8F\	.	.	.	.	.	.	.	.	.	.
8F\J	.	.	8a/	.	8cc\	.	8a\	.	8cc\	.
!	!	!	!	!	!LO:LB:g=original	!	!	!	!	!
=50	=50	=50	=50	=50	=50	=50	=50	=50	=50	=50
!	!	!	!	!	!	!	!LO:TUP:a:problem=klamra łukowa	!	!	!
4C/	.	.	24g/LL	.	24b-\LL	.	24g\LL	.	24b-\LL	.
.	.	.	24f/	.	24a\	.	24f\	.	24a\	.
.	.	.	24e/JJ	.	24g\JJ	.	24e\JJ	.	24g\JJ	.
.	.	.	16g'/LL	.	16b-'\LL	.	16g'\LL	.	16b-'\LL	.
.	.	.	16g'/JJ	.	16b-'\JJ	.	16g'\JJ	.	16b-'\JJ	.
4CC/	.	.	24g/LL	.	24b-\LL	.	24g\LL	.	24b-\LL	.
.	.	.	24f/	.	24a\	.	24f\	.	24a\	.
.	.	.	24e/JJ	.	24g\JJ	.	24e\JJ	.	24g\JJ	.
.	.	.	16g'/LL	.	16b-'\LL	.	16g'\LL	.	16b-'\LL	.
.	.	.	16g'/JJ	.	16b-'\JJ	.	16g'\JJ	.	16b-'\JJ	.
8r	.	.	16.g/LL	.	16.b-\LL	.	(16.g\LL	.	16b-\LL	.
.	.	.	.	.	.	.	.	.	16dd\JJ	.
.	.	.	32b-/JJk	.	(32dd\JJk	.	32b-\JJk	.	.	.
8C/L	.	.	4a/	.	4cc\)	.	4a\)	.	4cc\	.
8C/	.	.	.	.	.	.	.	.	.	.
8C/J	.	.	8g/	.	8b-\	.	8g\	.	8b-\	.
=51	=51	=51	=51	=51	=51	=51	=51	=51	=51	=51
4FF/	.	.	8f/	.	8a\	.	8f/	.	8a\	.
.	.	.	4a/	.	4ff\	.	4a\	.	4ff\	.
4BB-/	.	.	.	.	.	.	.	.	.	.
.	.	.	8b-/	.	[8dd\	.	8b-\	.	8dd\	.
4BB-/	.	.	8b-/	.	8dd\]	.	8b-\	.	8dd\	.
.	.	.	4g/	.	4b-\	.	4g\	.	4b-\	.
4BBn/	.	.	.	.	.	.	.	.	.	.
.	.	.	8f/	.	8a\	.	8f/	.	8a\	.
!LO:LB:g=original	!	!	!	!	!	!	!	!	!	!
=52	=52	=52	=52	=52	=52	=52	=52	=52	=52	=52
4C/	.	.	8f/L	.	(8a/L	.	8f/	.	8a\	.
.	.	.	8e/J	.	8g/J)	.	8e/	-tum	8g\	.
!	!	!	!	!LO:DY:t=forte	!	!	!	!	!	!
8E\L	.	.	16cc\LL	f	8cc\L|	.	4r	.	8cc\	.
.	.	.	16g\	.	.	.	.	.	.	.
8F\J	.	.	16a\	.	8ff\J|	.	.	.	8ff\	.
.	.	.	16f\JJ	.	.	.	.	.	.	.
*	*	*	*tuplet	*	*tuplet	*	*	*	*	*
!	!	!	!LO:LB:g=original	!	!	!	!	!	!	!
!	!	!	!LO:TUP:b:problem=klamra łukowa	!	!LO:TUP:a:problem=klamra łukowa	!	!	!	!	!
4C\	.	.	24e/LL	.	24ee\LL	.	4r	.	24ee\LL	.
.	.	.	24f/	.	24dd\	.	.	.	24dd\	.
.	.	.	24g/J	.	24cc\JJ	.	.	.	24cc\JJ	.
!	!	!	!	!	!	!	!	!	!LO:LB:g=original	!
.	.	.	8g/J	.	8cc\	.	.	.	8cc\	-rum
!	!	!	!	!LO:DY:b	!	!LO:DY:a	!	!	!	!
8E\L	.	.	16ccc\LL	p	8e/L	p	8cc\	for-	4r	.
.	.	.	16gg\	.	.	.	.	.	.	.
8F\J	.	.	16aa\	.	8f/J	.	8f/	-ti	.	.
.	.	.	16ff\JJ	.	.	.	.	.	.	.
=53	=53	=53	=53	=53	=53	=53	=53	=53	=53	=53
!	!	!	!LO:TUP:b:problem=klamra łukowa	!	!	!	!	!	!	!
4C\	.	.	24e/LL	.	8c/L	.	24e/LL	ne-	4r	.
.	.	.	24f/	.	.	.	24f/	.	.	.
.	.	.	24g/J	.	.	.	24g/JJ	.	.	.
.	.	.	8g/J|	.	8c/J	.	8g/	-xu	.	.
!	!	!	!	!LO:DY:t=forte&colon;	!	!	!	!	!	!
8E\L	.	.	16cc\LL	f	8cc\L|	.	4r	.	8cc\	ae-
.	.	.	16g\	.	.	.	.	.	.	.
8F\J	.	.	16a\	.	8ff\J|	.	.	.	8ff\	-vi
.	.	.	16f\JJ	.	.	.	.	.	.	.
!	!	!	!LO:TUP:b:problem=klamra łukowa	!	!LO:TUP:a:problem=klamra łukowa	!	!	!	!	!
4C\	.	.	24e/LL	.	24ee\LL	.	4r	.	24ee\LL	ter-
.	.	.	24f/	.	24dd\	.	.	.	24dd\	.
.	.	.	24g/J	.	24cc\JJ	.	.	.	24cc\JJ	.
.	.	.	8g/J|	.	8cc\	.	.	.	8cc\	-no
8E\L	.	.	16ccc\LL	.	(8e/L	.	8cc\	per	4r	.
!	!	!	!	!LO:DY:b:t=piano	!	!	!	!	!	!
.	.	.	16gg\	p	.	.	.	.	.	.
8F\J	.	.	16aa\	.	8f/J)	.	8f/	a-	.	.
.	.	.	16ff\JJ	.	.	.	.	.	.	.
!	!	!	!	!	!	!	!LO:LB:g=original	!	!	!
=54	=54	=54	=54	=54	=54	=54	=54	=54	=54	=54
!	!	!	!LO:TUP:b:problem=klamra łukowa	!	!	!	!	!	!	!
4C/	.	.	24e/LL	.	8c/L	.	24e/LL	-man-	2r	.
.	.	.	24f/	.	.	.	24f/	.	.	.
.	.	.	24g/J	.	.	.	24g/JJ	.	.	.
.	.	.	8g/J|	.	8c/J	.	8g/	-ter	.	.
4r	.	.	4r	.	4r	.	4r	.	.	.
!	!	!LO:DY:t=for&colon;	!	!	!	!	!	!	!	!
4E\	.	f	16.g/LL	.	(16.b-\LL	.	16.g\LL	.	16.b-\LL	ti-
.	.	.	32a/JJk	.	32cc\JJk	.	32a\JJk	mi-	32cc\JJk	.
.	.	.	4b-/	.	4dd\)	.	4b-\	.	4dd\	.
!	!	!LO:DY:t=Pia&colon;	!	!	!	!	!	!	!	!
4E\	.	p	.	.	.	.	.	.	.	.
.	.	.	8a/	.	8b-\	.	8g\	-hi	8b-\	-bi
!	!	!	!	!	!LO:LB:g=original	!	!	!	!	!
=55	=55	=55	=55	=55	=55	=55	=55	=55	=55	=55
!	!	!	!	!	!	!LO:DY:a	!	!	!	!
4F\	.	.	16.f/LL	.	16.a\LL	f	16.f\LL	con-	16.a\LL	.
.	.	.	32g/JK	.	32b-\JK	.	32g\JK	.	32b-\JK	.
.	.	.	8g/J	.	8b-\J	.	8g\J	.	8b-\J	con-
8r	.	.	4a/	.	4cc\	.	4a\	.	4cc\	.
32F\LLL	.	.	.	.	.	.	.	.	.	.
32G\	.	.	.	.	.	.	.	.	.	.
32A\	.	.	.	.	.	.	.	.	.	.
32B-\JJJ	.	.	.	.	.	.	.	.	.	.
4c\	.	.	(8g/	.	(8b-\	.	8g\	-glu-	8b-\	-glu-
.	.	.	4f/	.	4a\	.	4f/	-ti-	4a\	-ti-
4C/	.	.	.	.	.	.	.	.	.	.
.	.	.	8e/)	.	8g\)	.	8e/	.	8g\	.
=56	=56	=56	=56	=56	=56	=56	=56	=56	=56	=56
4FF/	.	.	16.f/LL	.	16.a\LL	.	16.f/LL	.	16.a\LL	.
.	.	.	32g/JK	.	32b-\JK	.	32g/JK	-na-	32b-\JK	.
.	.	.	8g/J	.	8b-\J	.	8g/J	.	8cc\J	-na-
8r	.	.	4a/	.	4cc\	.	4a\	.	4cc\	.
32FF/LLL	.	.	.	.	.	.	.	.	.	.
32GG/	.	.	.	.	.	.	.	.	.	.
32AA/	.	.	.	.	.	.	.	.	.	.
32BB-/JJJ	.	.	.	.	.	.	.	.	.	.
4C/	.	.	8g/	.	(8b-\	.	8g\	.	8b-\	.
.	.	.	4f/	.	4a\)	.	4f/	.	4a\	.
4CC/	.	.	.	.	.	.	.	.	.	.
.	.	.	8e/	.	8g\	.	8e/	.	8g\	.
=57	=57	=57	=57	=57	=57	=57	=57	=57	=57	=57
*	*	*	*Xtuplet	*	*	*	*	*	*	*
!	!	!	!LO:TUP:a:problem=klamra łukowa	!	!LO:TUP:a:problem=klamra łukowa	!	!LO:TUP:a:problem=klamra łukowa	!	!	!
8FF/	.	.	24f/LL	.	24a\LL	.	24f\LL	.	24a\LL	.
.	.	.	24g/	.	24b-\	.	24g\	.	24b-\	.
.	.	.	24a/JJ	.	24cc\JJ	.	24a\JJ	.	24cc\JJ	.
!	!	!	!LO:TUP:a:problem=klamra łukowa	!	!LO:TUP:a:problem=klamra łukowa	!	!LO:TUP:a:problem=klamra łukowa	!	!	!
8r	.	.	24b-/LL	.	24dd\LL	.	24b-\LL	.	24dd\LL	.
.	.	.	24a/	.	24cc\	.	24a\	.	24cc\	.
.	.	.	24g/JJ	.	24b-\JJ	.	24g\JJ	.	24b-\JJ	.
!	!	!	!LO:LB:g=original	!	!	!	!	!	!	!
*	*	*	*tuplet	*	*	*	*	*	*	*
!	!	!	!LO:TUP:b:problem=klamra łukowa	!	!LO:TUP:a:problem=klamra łukowa	!	!LO:TUP:a:problem=klamra łukowa	!	!LO:LB:g=original	!
4r	.	.	24f/LL	.	24a\LL	.	24f\LL	.	24a\LL	.
.	.	.	24g/	.	24b-\	.	24g\	.	24b-\	.
.	.	.	24a/JJ	.	24cc\JJ	.	24a\JJ	.	24cc\JJ	.
!	!	!	!LO:TUP:b:problem=klamra łukowa	!	!LO:TUP:a:problem=klamra łukowa	!	!LO:TUP:a:problem=klamra łukowa	!	!	!
.	.	.	24b-/LL	.	24dd\LL	.	24b-\LL	.	24dd\LL	.
.	.	.	24a/	.	24cc\	.	24a\	.	24cc\	.
.	.	.	24g/JJ	.	24b-\JJ	.	24g\JJ	.	24b-\JJ	.
8FF/	.	.	8f/	.	8a\	.	8f\	.	8a\	.
*	*	*	*Xtuplet	*	*	*	*	*	*	*
!	!	!	!LO:TUP:a:problem=klamra łukowa	!	!LO:TUP:a:problem=klamra łukowa	!	!	!	!	!
8r	.	.	24a\LL	.	24cc\LL	.	24a\LL	.	24cc\LL	.
.	.	.	24b-\	.	24dd\	.	24b-\	.	24dd\	.
.	.	.	24a\JJ	.	24cc\JJ	.	24a\JJ	.	24cc\JJ	.
!	!	!	!LO:TUP:a:problem=klamra łukowa	!	!LO:TUP:a:problem=klamra łukowa	!	!	!	!	!
4r	.	.	24b-\LL	.	24dd\LL	.	24b-\LL	.	24dd\LL	.
.	.	.	24cc\	.	24ee\	.	24cc\	.	24ee\	.
.	.	.	24b-\JJ	.	24dd\JJ	.	24b-\JJ	.	24dd\JJ	.
!	!	!	!	!	!LO:TUP:a:problem=klamra łukowa	!	!	!	!	!
.	.	.	24g/LL	.	24ee\LL	.	24g\LL	.	24ee\LL	.
.	.	.	24a/	.	24ff\	.	24a\	.	24ff\	.
.	.	.	24g/JJ	.	24ee\JJ	.	24g\JJ	.	24ee\JJ	.
!	!	!	!	!	!	!	!LO:LB:g=original	!	!	!
=58	=58	=58	=58	=58	=58	=58	=58	=58	=58	=58
2r	.	.	24a\LL	.	(24ff\LL	.	24a\LL	.	24ff\LL	.
.	.	.	24b-\	.	24gg\	.	24b-\	.	24gg\	.
.	.	.	24a\JJ	.	24ff\JJ)	.	24a\JJ	.	24ff\JJ	.
.	.	.	24cc\LL	.	(24ee\LL	.	24cc\LL	.	24ee\LL	.
.	.	.	24dd\	.	24ff\	.	24dd\	.	24ff\	.
.	.	.	24cc\JJ	.	24ee\JJ)	.	24cc\JJ	.	24ee\JJ	.
.	.	.	24dd\LL	.	(24ff\LL	.	24dd\LL	.	24ff\LL	.
.	.	.	24ee\	.	24gg\	.	24ee\	.	24gg\	.
.	.	.	24dd\JJ	.	24ff\JJ)	.	24dd\JJ	.	24ff\JJ	.
.	.	.	24ee\LL	.	(24gg\LL	.	24ee\LL	.	24gg\LL	.
.	.	.	24ff\	.	24aa\	.	24ff\	.	24aa\	.
.	.	.	24ee\JJ	.	24gg\JJ)	.	24ee\JJ	.	24gg\JJ	.
!	!	!LO:DY:a	!	!	!	!LO:DY:b	!	!	!	!
8FF/L	.	f	8ff\L	.	(8aa\L	f	8ff\L	.	24aa\LL	.
.	.	.	.	.	.	.	.	.	24gg\	.
.	.	.	.	.	.	.	.	.	24ff\JJ	.
8GG/	.	.	16ee\L	.	16gg\L	.	16ee\L	.	16aa\LL	.
.	.	.	16dd\JJ	.	16ff\JJ)	.	16dd\JJ	.	16ff\JJ	.
8AA/	.	.	16cc\LL	.	(16ee\LL	.	16cc\LL	.	16ee\LL	.
.	.	.	16b-\JJ	.	16dd\	.	16b-\	.	(16dd\	.
8BB-/J	.	.	16a/LL	.	16cc\	.	16a\	.	16cc\)	.
.	.	.	16g/JJ	.	16b-\JJ)	.	16g\JJ	.	16b-\JJ	.
!LO:LB:g=original	!	!	!	!	!LO:LB:g=original	!	!	!	!	!
=59	=59	=59	=59	=59	=59	=59	=59	=59	=59	=59
!	!	!	!	!	!	!LO:DY:b:t=pian:	!	!	!	!
8C/L	.	.	8.f/L	.	8.a/L	p	8.f/L	.	8.a\L	.
8BB-/	.	.	.	.	.	.	.	.	.	.
.	.	.	16g/Jk	.	16b-/Jk	.	16g/Jk	.	16b-\Jk	.
8C/	.	.	4e/	.	4g/	.	4e/	.	4g/	.
8CC/J	.	.	.	.	.	.	.	.	.	.
!LO:TX:a:t=P:problem=mixed beam	!	!LO:DY:t=Pia&colon;	!	!	!	!	!	!	!	!
8FF/L	.	p	4f/	.	4f/	.	4f/	-tum	4f/	-tum
8F\	.	.	.	.	.	.	.	.	.	.
8E\	.	.	16cc\LL	.	8cc\L|	.	8cc\	for-	4r	.
.	.	.	16g\	.	.	.	.	.	.	.
8F\J	.	.	16a\	.	8f\J|	.	8f/	-ti	.	.
.	.	.	16f\JJ	.	.	.	.	.	.	.
=60	=60	=60	=60	=60	=60	=60	=60	=60	=60	=60
!	!	!	!	!	!	!LO:DY:b	!	!	!	!
4C/	.	.	8c/L	.	16e/LL	f	24e/LL	ne-	4r	.
.	.	.	.	.	.	.	24f/	.	.	.
.	.	.	.	.	16f/J	.	.	.	.	.
.	.	.	.	.	.	.	24g/JJ	.	.	.
.	.	.	8c/J	.	8g/J	.	8g\	-xu	.	.
8C/L	.	.	16ccc\LL	.	8c/L	.	4r	.	8cc\	vi-
.	.	.	16gg\	.	.	.	.	.	.	.
8C/J	.	.	16aa\	.	8c/J	.	.	.	8ff\	-tae
.	.	.	16ff\JJ	.	.	.	.	.	.	.
*	*	*	*tuplet	*	*	*	*	*	*	*
!	!	!	!LO:TUP:a:problem=klamra łukowa	!	!	!	!	!	!LO:LB:g=original	!
4C/	.	.	24ee\LL	.	4c/	.	2r	.	24ee\LL	cur-
.	.	.	24dd\	.	.	.	.	.	(24dd\	.
.	.	.	24cc\J	.	.	.	.	.	24cc\JJ)	.
.	.	.	8cc\J|	.	.	.	.	.	8cc\	-sum
4r	.	.	4r	.	4r	.	.	.	4r	.
=61	=61	=61	=61	=61	=61	=61	=61	=61	=61	=61
!	!	!LO:DY:t=for&colon;	!	!LO:DY:a	!	!LO:DY:t=for:	!	!	!	!
4E\	.	f	16.g/LL	f	16.b-\LL	f	16.g\LL	.	16.b-\LL	con-
.	.	.	32a/JJk	.	32cc\JJk	.	32a\JJk	con-	32cc\JJk	.
.	.	.	4b-/	.	4dd\	.	4b-\	.	4dd\	.
!	!	!LO:DY:t=Pia&colon;	!	!	!	!	!	!	!	!
4E\	.	p	.	.	.	.	.	.	.	.
.	.	.	8g/	.	8b-\	.	8g\	-glu-	8b-\	-glu-
!	!	!	!	!	!	!	!LO:SIC:l:s=-ti-:v	!	!	!
8F\	.	.	8f/	.	8a\	.	8f/	-t-	8a\	-ti-
*	*	*	*Xtuplet	*	*Xtuplet	*	*	*	*	*
!	!	!	!	!LO:DY:b:t=piano	!	!LO:DY:a	!	!	!	!
8r	.	.	24a/LL	p	24cc\LL	p	24a\LL	-na-	24cc\LL	-na-
.	.	.	24b-/	.	24dd\	.	24b-\	.	24dd\	.
.	.	.	24a/JJ	.	24cc\JJ	.	24a\JJ	.	24cc\JJ	.
!	!	!	!LO:LB:g=original	!	!	!	!	!	!	!
4r	.	.	24b-\LL	.	24dd\LL	.	24b-\LL	.	24dd\LL	.
.	.	.	24cc\	.	24ee\	.	24cc\	.	24ee\	.
.	.	.	24b-\JJ	.	24dd\JJ	.	24b-\JJ	.	24dd\JJ	.
.	.	.	24g\LL	.	24ee\LL	.	24g\LL	.	24ee\LL	.
.	.	.	24a\	.	24ff\	.	24a\	.	24ff\	.
.	.	.	24g\JJ	.	24ee\JJ	.	24g\JJ	.	24ee\JJ	.
=62	=62	=62	=62	=62	=62	=62	=62	=62	=62	=62
!	!	!	!	!	!LO:TUP:a:problem=klamra łukowa	!	!LO:TUP:a:problem=klamra łukowa	!	!	!
2r	.	.	24a\LL	.	24ff\LL	.	24a\LL	.	24ff\LL	.
.	.	.	24b-\	.	24gg\	.	24b-\	.	24gg\	.
.	.	.	24a\JJ	.	24ff\JJ	.	24a\JJ	.	24ff\JJ	.
!	!	!	!	!	!LO:TUP:a:problem=klamra łukowa	!	!LO:TUP:a:problem=klamra łukowa	!	!	!
.	.	.	24cc\LL	.	24ee\LL	.	24cc\LL	.	24ee\LL	.
.	.	.	24dd\	.	24ff\	.	24dd\	.	24ff\	.
.	.	.	24cc\JJ	.	24ee\JJ	.	24cc\JJ	.	24ee\JJ	.
!	!	!	!	!	!LO:TUP:a:problem=klamra łukowa	!	!	!	!	!
.	.	.	24dd\LL	.	24ff\LL	.	24dd\LL	.	24ff\LL	.
.	.	.	24ee\	.	24gg\	.	24ee\	.	24gg\	.
.	.	.	24dd\JJ	.	24ff\JJ	.	24dd\JJ	.	24ff\JJ	.
!	!	!	!	!	!LO:TUP:a:problem=klamra łukowa	!	!	!	!	!
.	.	.	24ee\LL	.	24gg\LL	.	24ee\LL	.	24gg\LL	.
.	.	.	24ff\	.	24aa\	.	24ff\	.	24aa\	.
.	.	.	24ee\JJ	.	24gg\JJ	.	24ee\JJ	.	24gg\JJ	.
!	!	!LO:DY:t=for&colon;	!	!	!	!LO:LB:g=original	!	!	!	!
8FF/L	.	f	8ff\L	.	8aa\L	.	8.ff\L	.	8aa\L	.
8GG/	.	.	16ee\L	.	16gg\L	.	.	.	16gg\L	.
.	.	.	16dd\JJ	.	16ff\JJ	.	32ee\LL	.	16ff\JJ	.
.	.	.	.	.	.	.	32dd\JJJ	.	.	.
8AA/	.	.	16cc\LL	.	16ee\LL	.	16cc\LL	.	16ee\LL	.
.	.	.	16b-\	.	16dd\	.	16b-\	.	16dd\	.
8BB-/J	.	.	16a\	.	16cc\	.	16a\	.	16cc\	.
.	.	.	16g\JJ	.	16b-\JJ	.	16g\JJ	.	16b-\JJ	.
=63	=63	=63	=63	=63	=63	=63	=63	=63	=63	=63
8C/L	.	.	8.f/L	.	8.a/L	.	8.f/L	.	8.a\L	.
8BB-/	.	.	.	.	.	.	.	.	.	.
.	.	.	16g/Jk	.	16b-/Jk	.	16g/Jk	.	16b-\Jk	.
8C/	.	.	4e/	.	4g/	.	4e/	.	4g/	.
8CC/J	.	.	.	.	.	.	.	.	.	.
!LO:TX:a:t=P:problem=mixed beam	!	!LO:DY:t=fortiſ&colon;	!	!	!	!	!	!	!	!
8FF/L	.	ff	4f/	.	4f/	.	4f/	-tum	4f/	-tum.
8F\	.	.	.	.	.	.	.	.	.	.
!	!	!	!	!	!	!LO:DY:b:t=fortiſ:	!	!	!	!
8E\	.	.	16ccc\LL	.	16ccc\LL	ff	4r	.	4r	.
.	.	.	16gg\	.	16gg\	.	.	.	.	.
8F\J	.	.	16aa\	.	16aa\	.	.	.	.	.
.	.	.	16ff\JJ	.	16ff\JJ	.	.	.	.	.
!	!	!	!	!	!LO:LB:g=original	!	!	!	!	!
=64	=64	=64	=64	=64	=64	=64	=64	=64	=64	=64
*	*	*	*tuplet	*	*tuplet	*	*	*	*	*
!	!	!	!LO:TUP:a:problem=klamra łukowa	!LO:DY:b:t=fortiſmo	!LO:TUP:a:problem=klamra łukowa	!	!LO:TX:a:t=5	!	!LO:TX:a:t=5	!
4C\	.	.	24ee\LL	ff	24ee\LL	.	00r	.	00r	.
.	.	.	24ff\	.	24ff\	.	.	.	.	.
.	.	.	24gg\J	.	24gg\JJ	.	.	.	.	.
.	.	.	8gg\J|	.	8gg\	.	.	.	.	.
8E\L	.	.	(16cc\LL	.	16cc\LL	.	.	.	.	.
.	.	.	16g\	.	16g\	.	.	.	.	.
8F\J	.	.	16a\	.	16a\	.	.	.	.	.
.	.	.	16f\JJ)	.	16f\JJ	.	.	.	.	.
*	*	*	*	*	*Xtuplet	*	*	*	*	*
!	!	!	!LO:TUP:b:problem=klamra łukowa	!	!	!	!	!	!	!
8C/L	.	.	24e/LL	.	24e'/LL	.	.	.	.	.
.	.	.	24f/	.	24f'/	.	.	.	.	.
.	.	.	24g/JJ	.	24g'/JJ	.	.	.	.	.
8C/	.	.	16g'/LL	.	16g'/LL	.	.	.	.	.
.	.	.	16g'/JJ	.	16g'/JJ	.	.	.	.	.
!	!	!	!LO:TUP:b:problem=klamra łukowa	!	!	!	!	!	!	!
8C/	.	.	24g/LL	.	24g'/LL	.	.	.	.	.
.	.	.	24a/	.	24a'/	.	.	.	.	.
.	.	.	24b-/JJ	.	24b-'/JJ	.	.	.	.	.
8C/J	.	.	16b-'/LL	.	16b-'/LL	.	.	.	.	.
.	.	.	16b-'/JJ	.	16b-'/JJ	.	.	.	.	.
=65	=65	=65	=65	=65	=65	=65	=65	=65	=65	=65
4F\	.	.	16.a\LL	.	16.a\LL	.	.	.	.	.
.	.	.	32b-\JK	.	32b-\JK	.	.	.	.	.
.	.	.	8b-\J	.	8b-\J	.	.	.	.	.
8r	.	.	4cc\	.	4cc\	.	.	.	.	.
(32F\LLL	.	.	.	.	.	.	.	.	.	.
32G\	.	.	.	.	.	.	.	.	.	.
32A\	.	.	.	.	.	.	.	.	.	.
32B-\JJJ)	.	.	.	.	.	.	.	.	.	.
4c\	.	.	8b-\	.	8b-\	.	.	.	.	.
.	.	.	4a/	.	4a/	.	.	.	.	.
4C/	.	.	.	.	.	.	.	.	.	.
.	.	.	8g/	.	8g/	.	.	.	.	.
!LO:LB:g=original	!	!	!LO:LB:g=original	!	!	!	!	!	!	!
=66	=66	=66	=66	=66	=66	=66	=66	=66	=66	=66
4FF/	.	.	16.a\LL	.	16.a\LL	.	.	.	.	.
.	.	.	32b-\JK	.	32b-\JK	.	.	.	.	.
.	.	.	8b-\J	.	8b-\J	.	.	.	.	.
8r	.	.	4cc\	.	4cc\	.	.	.	.	.
32FF/LLL	.	.	.	.	.	.	.	.	.	.
32GG/	.	.	.	.	.	.	.	.	.	.
32AA/	.	.	.	.	.	.	.	.	.	.
32BB-/JJJ	.	.	.	.	.	.	.	.	.	.
4C/	.	.	8b-\	.	8b-\	.	.	.	.	.
.	.	.	4a/	.	4a/	.	.	.	.	.
4CC/	.	.	.	.	.	.	.	.	.	.
.	.	.	8g/	.	8g/	.	.	.	.	.
=67	=67	=67	=67	=67	=67	=67	=67	=67	=67	=67
*	*	*	*Xtuplet	*	*tuplet	*	*	*	*	*
!	!	!LO:DY:t=fortiſsimo	!LO:TUP:a:problem=klamra łukowa	!	!LO:TUP:a:problem=klamra łukowa	!	!	!	!	!
8FF/L	.	ff	24a\LL	.	24a\LL	.	.	.	.	.
.	.	.	24b-\	.	24b-\	.	.	.	.	.
.	.	.	24cc\JJ	.	24cc\JJ	.	.	.	.	.
!	!	!	!LO:TUP:a:problem=klamra łukowa	!LO:DY:b:t=fortiſmo	!LO:TUP:a:problem=klamra łukowa	!	!	!	!	!
8FF/	.	.	24dd\LL	ff	24dd\LL	.	.	.	.	.
.	.	.	24cc\	.	24cc\	.	.	.	.	.
.	.	.	24b-\JJ	.	24b-\JJ	.	.	.	.	.
!	!	!	!LO:TUP:a:problem=klamra łukowa	!	!LO:TUP:a:problem=klamra łukowa	!	!	!	!	!
8FF/	.	.	24a\LL	.	24a\LL	.	.	.	.	.
.	.	.	24b-\	.	24b-\	.	.	.	.	.
.	.	.	24cc\JJ	.	24cc\JJ	.	.	.	.	.
!	!	!	!LO:TUP:a:problem=klamra łukowa	!	!LO:TUP:a:problem=klamra łukowa	!	!	!	!	!
8FF/J	.	.	24dd\LL	.	24dd\LL	.	.	.	.	.
.	.	.	24cc\	.	24cc\	.	.	.	.	.
.	.	.	24b-\JJ	.	24b-\JJ	.	.	.	.	.
8FF/L	.	.	8a\L	.	8a/L	.	.	.	.	.
8GG/	.	.	8ee\	.	8ee/	.	.	.	.	.
8AA/	.	.	8ff\	.	8ff/	.	.	.	.	.
8BB-/J	.	.	8b-\J	.	8b-/J	.	.	.	.	.
=68	=68	=68	=68	=68	=68	=68	=68	=68	=68	=68
!	!	!	!LO:TUP:a:problem=klamra łukowa	!	!LO:TUP:a:problem=klamra łukowa	!	!	!	!	!
8C/L	.	.	24a\LL	.	24a\LL	.	1r	.	1r	.
.	.	.	24ff\	.	24ff\	.	.	.	.	.
.	.	.	24ee\JJ	.	24ee\JJ	.	.	.	.	.
!	!	!	!LO:TUP:a:problem=klamra łukowa	!	!LO:TUP:a:problem=klamra łukowa	!	!	!	!	!
8BB-/	.	.	24dd\LL	.	24dd\LL	.	.	.	.	.
.	.	.	24cc\	.	24cc\	.	.	.	.	.
.	.	.	24b-\JJ	.	24b-\JJ	.	.	.	.	.
!	!	!	!	!	!LO:LB:g=original	!	!	!	!	!
8C/	.	.	4g/	.	4g/	.	.	.	.	.
8CC/J	.	.	.	.	.	.	.	.	.	.
!	!	!	!	!	!LO:TUP:b:problem=klamra łukowa	!	!	!	!	!
4FF/	.	.	24f/LL	.	24f/LL	.	.	.	.	.
.	.	.	24c/	.	24c/	.	.	.	.	.
.	.	.	24B-/JJ	.	24B-/JJ	.	.	.	.	.
!	!	!	!	!	!LO:TUP:b:problem=klamra łukowa	!	!	!	!	!
.	.	.	24A/LL	.	24A/LL	.	.	.	.	.
.	.	.	24B-/	.	24B-/	.	.	.	.	.
.	.	.	24c/JJ	.	24c/JJ	.	.	.	.	.
4r	.	.	4f/	.	4f/	.	.	.	.	.
=69||;;	=69||;;	=69||	=69||;;	=69||	=69||;;	=69||	=69||;;	=69||	=69||;;	=69||
!	!	!LO:DY:a	!	!	!	!LO:DY:a	!	!	!LO:TX:a:t=2	!
8F\L	.	p	8f/L	.	4cc\	p	4cc\	E-	0r	.
8F\	.	.	8f/	.	.	.	.	.	.	.
8E-X\	.	.	8e-X/	.	4cc\	.	4cc\	-ja	.	.
8E-\J	.	.	8e-/J	.	.	.	.	.	.	.
!	!	!	!	!LO:DY:a	!	!	!	!	!	!
8D/L	.	.	8d/L	p	8.dd\L	.	8.dd\L	me-	.	.
8C/	.	.	8c/	.	.	.	.	.	.	.
.	.	.	.	.	16ee-X\Jk	.	16ee-X\Jk	.	.	.
8BB-/	.	.	8B-/	.	4ff\	.	4ff\	-mor	.	.
8AA/J	.	.	8A/J	.	.	.	.	.	.	.
=70	=70	=70	=70	=70	=70	=70	=70	=70	=70	=70
4GG/	7	.	4G/	.	8ff\L	.	8ff\	e-	.	.
.	.	.	.	.	16ee-X\L	.	16ee-X\LL	-ſto	.	.
.	.	.	.	.	16dd\JJ	.	16dd\JJ	.	.	.
4GG/	6\	.	4G/	.	8cc\L	.	8cc\	gra-	.	.
.	.	.	.	.	8b-\J	.	8b-\	-ti-	.	.
8.FF/L	.	.	8.f/L	.	8b-\L	.	8b-\	-a-	.	.
.	.	.	.	.	8a\J	.	8a\	-rum	.	.
16GG/Jk	.	.	16g/Jk	.	.	.	.	.	.	.
!LO:N:vis=8	!	!	!	!LO:DY:t=forte	!	!LO:DY:a	!	!	!	!
16AA/LL	.	.	16A/LL	f	16A/LL	f	4r	.	.	.
!LO:N:vis=8	!	!	!	!	!	!	!	!	!	!
16BB-/	.	.	16B-/	.	16B-/	.	.	.	.	.
!LO:N:vis=8	!	!	!	!	!	!	!	!	!	!
16C/	.	.	16c/	.	16c/	.	.	.	.	.
!LO:N:vis=8	!	!	!	!	!	!	!	!	!	!
16D/JJ	.	.	16d/JJ	.	16d/JJ	.	.	.	.	.
!	!	!	!LO:LB:g=original	!	!	!	!	!	!LO:LB:g=original	!
=71	=71	=71	=71	=71	=71	=71	=71	=71	=71	=71
!	!	!	!	!LO:DY:a	!	!	!	!	!	!
8E-X\L	.	.	4cc\	p	8e-X/L	.	1r	.	4cc\	gra-
8E-\	.	.	.	.	8e-/	.	.	.	.	.
8E-\	.	.	4cc\	.	8e-/	.	.	.	4cc\	-tus
!	!	!	!	!	!	!	!	!	!LO:TX:a:t=P:problem=kreska taktowa	!
8E-\J	.	.	.	.	8e-/J	.	.	.	.	.
8D/L	.	.	8.dd\L	.	8d/L	.	.	.	8.dd\L	e-
8C/	.	.	.	.	8c/	.	.	.	.	.
.	.	.	16ee-X\Jk	.	.	.	.	.	16ee\Jk	.
8BB-/	.	.	4ff\	.	8B-/	.	.	.	8ff\	-ro
8AA/J	.	.	.	.	8A/J	.	.	.	8ff\	mi-
=72	=72	=72	=72	=72	=72	=72	=72	=72	=72	=72
4GG/	7	.	8ff\L	.	4G/	.	2r	.	8ff\	-se-
.	.	.	16ee-X\L	.	.	.	.	.	16ee-X\LL	-ri-
.	.	.	16dd\JJ	.	.	.	.	.	16dd\JJ	.
4GG/	6\	.	8cc\L	.	4G/	.	.	.	8cc\	-cor-
.	.	.	8b-\J	.	.	.	.	.	8b-\	-di-
!LO:LB:g=original	!	!	!	!	!	!	!	!	!	!
4FF/	.	.	8b-\L	.	4f/	.	4r	.	8b-\	-a-
.	.	.	8a\J	.	.	.	.	.	8a\	-rum
8AA/L	.	.	16f/LL	.	16ff\LL	.	16ff\LL	pro	4r	.
!	!	!	!	!	!	!LO:DY:a	!	!	!	!
.	.	.	16c/	.	16cc\	f	16cc\	.	.	.
8BB-/J	.	.	16d/	.	16dd\	.	16dd\	a-	.	.
.	.	.	16B-/JJ	.	16b-\JJ	.	16b-\JJ	.	.	.
=73	=73	=73	=73	=73	=73	=73	=73	=73	=73	=73
!	!	!	!	!LO:DY:t=forte	!LO:TUP:a:problem=klamra łukowa	!	!LO:TUP:a:problem=klamra łukowa	!	!	!
4FF/	.	.	4f/	f	24a\LL	.	24a\LL	-mo-	4r	.
.	.	.	.	.	24b-\	.	24b-\	.	.	.
.	.	.	.	.	24cc\JJ	.	24cc\JJ	.	.	.
.	.	.	.	.	8cc\	.	8cc\	-re	.	.
!	!	!	!	!	!	!LO:DY:b:t=piano	!	!	!	!
8A\L	.	.	16ff\LL	.	8a/L	p	4r	.	16ff\LL	fa-
.	.	.	16cc\	.	.	.	.	.	16dd\	.
8B-\J	.	.	16dd\	.	8b-/J	.	.	.	16dd\	.
.	.	.	16b-\JJ	.	.	.	.	.	16b-\JJ	.
*	*	*	*tuplet	*	*	*	*	*	*	*
!	!	!	!LO:TUP:a:problem=klamra łukowa	!	!	!	!	!	!	!
4F\	.	.	24a\LL	.	4f/	.	4r	.	(32a\LLL	-vo-
.	.	.	.	.	.	.	.	.	32b-\J	.
.	.	.	24b-\	.	.	.	.	.	.	.
.	.	.	.	.	.	.	.	.	16cc\JJ)	.
.	.	.	24cc\J	.	.	.	.	.	.	.
.	.	.	8cc\J|	.	.	.	.	.	8cc\	-re
!	!	!	!	!	!LO:LB:g=original	!	!	!	!	!
8r	.	.	8f/L	.	8f/L	.	8f/	me-	4r	.
8D\	.	.	8d/J	.	8b-/J	.	8b-\	-mor	.	.
!	!	!	!	!	!	!	!LO:LB:g=original	!	!	!
=74	=74	=74	=74	=74	=74	=74	=74	=74	=74	=74
4C\	.	.	4c/	.	8b-/L	.	8b-\	e-	2r	.
.	.	.	.	.	16a/L	.	(16a\LL	-sto	.	.
.	.	.	.	.	16b-/JJ	.	16b-\JJ)	.	.	.
8r	.	.	8r	.	8cc\L	.	8cc\	gra-	.	.
!	!	!	!	!LO:DY:t=piano	!	!	!	!	!	!
8E-X\	.	.	8e-X/	p	8cc\J	.	8cc\	-ti-	.	.
4D\	.	.	4d/	.	8cc\L	.	8cc\	-a-	4r	.
.	.	.	.	.	8b-\	.	8b-\	-rum	.	.
!	!	!	!	!	!	!LO:DY:a	!	!	!	!
8r	.	.	8f/L	.	8dd\	f	8f\L	.	8dd\	gra-
8BB-/	.	.	8b-/J	.	8dd\J	.	8b-\J	me-	8dd\	-t(us)
=75	=75	=75	=75	=75	=75	=75	=75	=75	=75	=75
4F\	.	.	8b-\L	.	8dd\L	.	8b-\L	.	8dd\L	mi-
.	.	.	16a\L	.	16cc\L	.	16a\L	-a-	16cc\L	.
.	.	.	16b-\JJ	.	16dd\JJ	.	16b-\JJ	.	16dd\JJ	.
!	!	!	!	!	!	!	!	!	!LO:LB:g=original	!
8r	.	.	8cc\L	.	8ee-X\L	.	8cc\	-rum	8ee-X\	-Se-
8FF/	.	.	8cc\J	.	8ee-\J	.	8cc\	de-	8ee-\	-ri-
4BB-/	.	.	8cc\L	.	8ee-\L	.	8cc\	-li-	8ee-\	-cor-
.	.	.	8b-\J	.	8dd\J	.	8b-\	-ti-	8dd\	-di-
!	!	!	!LO:TUP:a:problem=klamra łukowa	!	!LO:TUP:a:problem=klamra łukowa	!	!	!	!	!
4r	.	.	24dd\LL	.	24ff\LL	.	24dd\LL	-a-	24ff\LL	-a-
.	.	.	24cc\	.	24ee-\	.	24cc\	.	24ee-\	.
.	.	.	24b-\J	.	24dd\J	.	24b-\JJ	.	24dd\JJ	.
.	.	.	8dd\J|	.	8ff\J	.	8dd\	.	8ff\	.
=76	=76	=76	=76	=76	=76	=76	=76	=76	=76	=76
4FF/	.	.	8dd\L	.	8ff\L	.	(8dd\L	.	8ff\L	.
.	.	.	8cc\J	.	8ee-X\J	.	8cc\J)	.	8ee-X\J	.
*	*	*	*Xtuplet	*	*Xtuplet	*	*	*	*	*
!	!	!	!	!	!	!	!LO:TUP:a:problem=klamra łukowa	!	!	!
4r	.	.	24cc\LL	.	24ee-\LL	.	24cc\LL	.	24ee-\LL	.
.	.	.	24b-\	.	24dd\	.	24b-\	.	24dd\	.
.	.	.	24a\JJ	.	24cc\JJ	.	24a\JJ	.	24cc\JJ	.
.	.	.	16cc'\LL	.	16ee-X\LL	.	16cc'\LL	.	16ee-'\LL	.
.	.	.	16cc'\JJ	.	16ee-\JJ	.	16cc'\JJ	.	16ee-'\JJ	.
4BB-/	.	.	8cc\L	.	8dd\L	.	8cc\L	.	8dd\L	.
.	.	.	8b-\J	.	8cc\J	.	8b-\J	.	8cc\J	.
!	!	!	!LO:LB:g=original	!	!	!	!LO:TUP:a:problem=klamra łukowa	!	!	!
4r	.	.	24dd\LL	.	24ff\LL	.	24dd\LL	.	24ff\LL	.
.	.	.	24cc\	.	24ee-\	.	24cc\	.	24ee-\	.
.	.	.	24b-\JJ	.	24dd\JJ	.	24b-\JJ	.	24dd\JJ	.
.	.	.	16dd'\LL	.	16ff'\LL	.	16dd'\LL	.	16ff'\LL	.
.	.	.	16dd'\JJ	.	16ff'\JJ	.	16dd'\JJ	.	16ff'\JJ	.
=77	=77	=77	=77	=77	=77	=77	=77	=77	=77	=77
!	!	!	!	!	!LO:TUP:problem=klamra łukowa	!	!	!	!	!
4E-X\	.	.	24cc\LL	.	24ee-X\LL	.	24cc\LL	.	24ee-X\LL	.
.	.	.	24b-\	.	24dd\	.	24b-\	.	24dd\	.
.	.	.	24a\JJ	.	24cc\JJ	.	24a\JJ	.	24cc\JJ	.
.	.	.	16cc'\LL	.	16ee-\LL	.	16cc'\LL	.	16ee-\LL	.
.	.	.	16cc'\JJ	.	16ee-\JJ	.	16cc'\JJ	.	16ee-\JJ	.
!	!	!	!	!	!	!	!	!	!LO:TUP:a:problem=klamra łukowa	!
4En\	.	.	24b-\LL	.	24dd\LL	.	24b-\LL	.	24dd\LL	.
.	.	.	24a\	.	24cc\	.	24a\	.	24cc\	.
.	.	.	24g\JJ	.	24b-\JJ	.	24g\JJ	.	24b-\JJ	.
.	.	.	16b-'\LL	.	16dd\LL	.	16b-'\LL	.	16dd'\LL	.
.	.	.	16b-'\JJ	.	16dd\JJ	.	16b-'\JJ	.	16dd'\JJ	.
!	!	!LO:DY:a	!	!	!	!	!LO:LB:g=original	!	!	!
8.F\L	.	f	8b-\L	.	8dd\L	.	8b-\	.	8dd\	.
.	.	.	8a\J	.	8cc\J	.	8a\	-rum	8cc\	-rum
16F\Jk	.	.	.	.	.	.	.	.	.	.
16E-X\LL	.	.	4r	.	4r	.	4r	.	4r	.
16D\	.	.	.	.	.	.	.	.	.	.
16C\	.	.	.	.	.	.	.	.	.	.
16BB-\JJ	.	.	.	.	.	.	.	.	.	.
=78	=78	=78	=78	=78	=78	=78	=78	=78	=78	=78
4AA/	.	.	16.cc\LL	.	16.ee-X\LL	.	16.cc\LL	de-	16.ee-X\LL	gra-
.	.	.	32dd\JJk	.	32ff\JJk	.	32dd\JJk	.	32ff\JJk	.
!	!	!	!	!	!	!LO:DY:b:t=piano	!	!	!	!
.	.	.	4ee-X\	.	4gg\	p	4ee-X\	-li-	4gg\	.
!	!	!LO:DY:t=Pia&colon;	!	!	!	!	!	!	!	!
4AA/	.	p	.	.	.	.	.	.	.	.
.	.	.	8cc\	.	8ee-X\	.	8cc\	-ti-	8ee-\	-ti-
!	!	!	!	!	!LO:LB:g=original	!	!	!	!LO:LB:g=original	!
4BB-/	.	.	16.b-\LL	.	16.dd\LL	.	16.b-\LL	-a-	16.dd\LL	-a-
.	.	.	32cc\JK	.	32ee-\JK	.	32cc\JK	.	32ee-\JK	.
.	.	.	8cc\J	.	8ee-\J	.	8cc\J	.	8ee-\J	.
8r	.	.	4dd\	.	4ff\	.	4dd\	.	4ff\	.
32BB-/LLL	.	.	.	.	.	.	.	.	.	.
32C/	.	.	.	.	.	.	.	.	.	.
32D/	.	.	.	.	.	.	.	.	.	.
32E/JJJ	.	.	.	.	.	.	.	.	.	.
!LO:LB:g=original	!	!	!	!	!	!	!	!	!	!
=79	=79	=79	=79	=79	=79	=79	=79	=79	=79	=79
4F\	.	.	8cc\	.	8ee-X\	.	8cc\	.	8ee-X\	.
.	.	.	4b-\	.	4dd\	.	4b-\	.	4dd\	.
4FF/	.	.	.	.	.	.	.	.	.	.
.	.	.	8a\	.	8cc\	.	8a\	.	8cc\	.
8BB-/	.	.	16.b-\LL	.	16.dd\LL	.	16.b-\LL	.	16.dd\LL	.
.	.	.	32cc\JK	.	32ee-X\JK	.	32cc\JK	.	32ee-\JK	.
8r	.	.	8cc\J	.	8ee-\J	.	8cc\J	.	8ee-\J	.
4r	.	.	4dd\	.	4ff\	.	4dd\	.	4ff\	.
=80	=80	=80	=80	=80	=80	=80	=80	=80	=80	=80
4F\	.	.	8cc\	.	8ee-X\	.	8cc\	.	8ee-X\	.
.	.	.	4b-\	.	4dd\	.	4b-\	.	4dd\	.
4FF/	.	.	.	.	.	.	.	.	.	.
.	.	.	8a\	.	8cc\	.	8a\	.	8cc\	.
*	*	*	*	*	*tuplet	*	*	*	*	*
!	!	!	!LO:TUP:a:problem=klamra łukowa	!	!LO:TUP:a:problem=klamra łukowa	!	!LO:TUP:a:problem=klamra łukowa	!	!	!
8BB-/	.	.	24b-\LL	.	24dd\LL	.	24b-\LL	.	24dd\LL	.
.	.	.	24cc\	.	24ee-\	.	24cc\	.	24ee-X\	.
.	.	.	24dd\JJ	.	24ff\JJ	.	24dd\JJ	.	24ff\JJ	.
!	!	!	!LO:TUP:a:problem=klamra łukowa	!	!LO:TUP:a:problem=klamra łukowa	!	!	!	!	!
8r	.	.	24ee-X\LL	.	24gg\LL	.	24ee-X\LL	.	24gg\LL	.
.	.	.	24dd\	.	24ff\	.	24dd\	.	24ff\	.
.	.	.	24cc\JJ	.	24ee-\JJ	.	24cc\JJ	.	24ee-\JJ	.
*	*	*	*	*	*Xtuplet	*	*	*	*	*
!	!	!	!	!	!	!	!	!	!LO:TUP:a:problem=klamra łukowa	!
4r	.	.	24b-\LL	.	24dd\LL	.	24b-\LL	.	24dd\LL	.
.	.	.	24cc\	.	24ee-\	.	24cc\	.	24ee-\	.
.	.	.	24dd\JJ	.	24ff\JJ	.	24dd\JJ	.	24ff\JJ	.
!	!	!	!	!	!	!	!	!	!LO:TUP:a:problem=klamra łukowa	!
.	.	.	24ee-X\LL	.	24gg\LL	.	24ee-X\LL	.	24gg\LL	.
.	.	.	24dd\	.	24ff\	.	24dd\	.	24ff\	.
.	.	.	24cc\JJ	.	24ee-\JJ	.	24cc\JJ	.	24ee-\JJ	.
!	!	!	!LO:LB:g=original	!	!	!	!	!	!	!
=81	=81	=81	=81	=81	=81	=81	=81	=81	=81	=81
8r	.	.	8b-\L	.	8dd\L	.	8b-\L	.	8dd\L	.
8AA/L	.	.	8ee-X\	.	8gg\	.	8ee-X\	.	8gg\	.
8BB-/	.	.	8dd\	f	8ff\	.	8dd\	.	8ff\	.
8E-X/J	.	.	8cc\J	.	8ee-X\J	.	8cc\J	.	8ee-X\J	.
!LO:TX:a:t=P:problem=mixed beam	!	!	!	!	!	!	!	!	!	!
8F\L	.	.	8.b-\L	.	8.dd\L	.	8.b-\L	.	8.dd\L	.
8E-X\	.	.	.	.	.	.	.	.	.	.
.	.	.	16cc\Jk	.	16ee-X\Jk	.	16cc\Jk	.	16ee-X\Jk	.
8F\	.	.	4a/	.	4cc\	.	4a\	.	4cc\	.
8FF/J	.	.	.	.	.	.	.	.	.	.
!	!	!	!	!	!	!	!LO:LB:g=original	!	!	!
=82	=82	=82	=82	=82	=82	=82	=82	=82	=82	=82
!	!	!LO:DY:a	!	!	!LO:TUP:a:problem=klamra łukowa	!	!	!	!	!
8BB-/L	.	f	8b-/L	.	24dd\LL	.	4b-\	-rum	4b-\	-rum
.	.	.	.	.	24ee-X\	.	.	.	.	.
.	.	.	.	.	24ff\JJ	.	.	.	.	.
!	!	!	!	!LO:DY:a	!	!	!	!	!	!
8BB-/	.	.	8B-/	p	24gg\LL	.	.	.	.	.
.	.	.	.	.	24ff\	.	.	.	.	.
.	.	.	.	.	24ee-\JJ	.	.	.	.	.
!	!	!	!	!	!LO:TUP:a:problem=klamra łukowa	!	!	!	!	!
8BB-/	.	.	8B-/	.	24dd\LL	.	4r	.	4r	.
.	.	.	.	.	24ee-X\	.	.	.	.	.
.	.	.	.	.	24ff\JJ	.	.	.	.	.
!	!	!	!	!	!LO:TUP:a:problem=klamra łukowa	!	!	!	!	!
8BB-/J	.	.	8B-/J	.	24gg\LL	.	.	.	.	.
.	.	.	.	.	24ff\	.	.	.	.	.
.	.	.	.	.	24ee-\JJ	.	.	.	.	.
!	!	!	!LO:TX:a:t=P:problem=mixed beam	!	!	!	!	!	!LO:LB:g=original	!
8BB-/L	.	.	8B-/L	.	8dd\L	.	8r	.	8r	.
8AA/	.	.	8ee-X\	.	8gg\	.	8ee-X\	de-	(8gg\L	gra-
8BB-/	.	.	8dd\	.	8ff\	.	8dd\	-li-	8ff\J)	.
!	!	!	!	!	!	!	!	!	!LO:SIC:s=8ee-:v	!
8E-X/J	.	.	8cc\J	.	8ee-X\J	.	8cc\	-ti-	8ee\	-ti-
!	!	!	!	!	!LO:LB:g=original	!	!	!	!	!
=83	=83	=83	=83	=83	=83	=83	=83	=83	=83	=83
!LO:TX:a:t=P:problem=mixed beam	!	!	!	!	!	!	!	!	!	!
8F\L	.	.	8.b-\L	.	8.dd\L	.	8.b-\L	-a-	8.dd\L	-a-
!LO:SIC:s=8E-:v	!	!	!	!	!	!	!	!	!	!
8E\	.	.	.	.	.	.	.	.	.	.
!	!	!	!	!	!	!	!	!	!LO:SIC:s=16ee-:v	!
.	.	.	16cc\Jk	.	16ee-X\Jk	.	(16cc\Jk	.	16ee\Jk	.
8F\	.	.	4a/	.	4cc\	.	4a\)	.	4cc\	.
!LO:TX:a:t=P:problem=mixed beam	!	!	!	!	!	!	!	!	!	!
8FF/J	.	.	.	.	.	.	.	.	.	.
8.BB-\L	.	.	4b-/	.	4b-\	.	4b-\	-rum	4b-\	-rum
16d\Jk	.	.	.	.	.	.	.	.	.	.
!	!	!LO:DY:b:t=fortiſmo	!	!	!	!	!	!	!	!
16c\LL	.	ff	4r	.	4r	.	4r	.	4r	.
16B-\	.	.	.	.	.	.	.	.	.	.
16A\	.	.	.	.	.	.	.	.	.	.
16G\JJ	.	.	.	.	.	.	.	.	.	.
=84	=84	=84	=84	=84	=84	=84	=84	=84	=84	=84
!	!	!	!	!	!	!	!	!	!LO:TX:a:t=4	!
8F\L	.	.	4cc\	.	4cc\	.	00r	.	00r	.
8F\	.	.	.	.	.	.	.	.	.	.
8E\	.	.	4cc\	.	4cc\	.	.	.	.	.
8E\J	.	.	.	.	.	.	.	.	.	.
8D\L	.	.	8.dd\L	.	8.dd\L	.	.	.	.	.
8D\	.	.	.	.	.	.	.	.	.	.
.	.	.	16ee\Jk	.	16ee\Jk	.	.	.	.	.
8D\	.	.	8ff\L	.	8ff\L	.	.	.	.	.
8D\J	.	.	16ee\L	.	16ee\L	.	.	.	.	.
.	.	.	16dd\JJ	.	16dd\JJ	.	.	.	.	.
!LO:LB:g=original	!	!	!	!	!	!	!	!	!	!
=85	=85	=85	=85	=85	=85	=85	=85	=85	=85	=85
8E\L	.	.	8cc\L	.	8cc\L	.	.	.	.	.
8E\	.	.	16.ee\L	.	16.ee\L	.	.	.	.	.
.	.	.	32ff\JJk	.	32ff\JJk	.	.	.	.	.
8E\	.	.	8gg\L	.	8gg\L	.	.	.	.	.
8E\J	.	.	8b-\J	.	8b-\J	.	.	.	.	.
4F\	.	.	16.a\LL	.	16.a\LL	.	.	.	.	.
.	.	.	32b-\JK	.	32b-\JK	.	.	.	.	.
.	.	.	8b-\J	.	8b-\J	.	.	.	.	.
8r	.	.	4cc\	.	4cc\	.	.	.	.	.
(32F\LLL	.	.	.	.	.	.	.	.	.	.
32G\	.	.	.	.	.	.	.	.	.	.
32A\	.	.	.	.	.	.	.	.	.	.
32B-\JJJ)	.	.	.	.	.	.	.	.	.	.
=86	=86	=86	=86	=86	=86	=86	=86	=86	=86	=86
4c\	.	.	8b-\	.	8b-\	.	.	.	.	.
.	.	.	4a/	.	4a/	.	.	.	.	.
4C/	.	.	.	.	.	.	.	.	.	.
.	.	.	8g/	.	8g/	.	.	.	.	.
!	!	!	!LO:TX:a:t=P:problem=mixed beam	!	!	!	!	!	!	!
!	!	!	!LO:N:vis=16	!	!	!	!	!	!	!
8FF/L	.	.	32a/KLL	.	32a\KLL	.	.	.	.	.
.	.	.	16.aa\	.	16.aa\	.	.	.	.	.
!	!	!	!LO:N:vis=16	!	!	!	!	!	!	!
8GG/	.	.	32gg\K	.	32gg\K	.	.	.	.	.
!	!	!	!LO:N:vis=32.	!	!	!	!	!	!	!
.	.	.	16.ff\JJ	.	16.ff\JJ	.	.	.	.	.
8AA/	.	.	32ee\KLL	.	32ee\KLL	.	.	.	.	.
.	.	.	16.dd\	.	16.dd\	.	.	.	.	.
!	!	!	!LO:N:vis=16	!	!	!	!	!	!	!
8BB-/J	.	.	32cc\K	.	32cc\K	.	.	.	.	.
!	!	!	!LO:N:vis=32.	!	!	!	!	!	!	!
.	.	.	16.b-\JJ	.	16.b-\JJ	.	.	.	.	.
!	!	!	!LO:SIC:znaczek wyglądający jak custos po kresce taktowej:v	!	!	!	!	!	!	!
!	!	!	!LO:LB:g=original	!	!	!	!	!	!	!
=87	=87	=87	=87	=87	=87	=87	=87	=87	=87	=87
!	!	!	!	!	!LO:TUP:a:problem=klamra łukowa	!	!	!	!	!
8C/L	.	.	24a\LL	.	24a\LL	.	.	.	.	.
.	.	.	24ff\	.	24ff\	.	.	.	.	.
.	.	.	24ee\JJ	.	24ee\JJ	.	.	.	.	.
8BB-/	.	.	24dd\LL	.	24dd\LL	.	.	.	.	.
.	.	.	24cc\	.	24cc\	.	.	.	.	.
.	.	.	24b-\JJ	.	24b-\JJ	.	.	.	.	.
!	!	!	!	!	!LO:TX:a:t=P:problem=powinno być tak jak w vn 2	!	!	!	!	!
8C/	.	.	4g/	.	24f/LL	.	.	.	.	.
.	.	.	.	.	24c/	.	.	.	.	.
.	.	.	.	.	24B-/JJ	.	.	.	.	.
8CC/J	.	.	.	.	24A/LL	.	.	.	.	.
.	.	.	.	.	24B-/	.	.	.	.	.
.	.	.	.	.	24c/JJ	.	.	.	.	.
4FF/	.	.	24f/LL	.	4f/	.	.	.	.	.
.	.	.	24c/	.	.	.	.	.	.	.
.	.	.	24B-/JJ	.	.	.	.	.	.	.
.	.	.	24A/LL	.	.	.	.	.	.	.
.	.	.	24B-/	.	.	.	.	.	.	.
.	.	.	24c/JJ	.	.	.	.	.	.	.
!LO:TX:a:t=[segno]:problem=segno na kresce taktowej	!	!	!LO:TX:a:t=[segno]:problem=segno na kresce taktowej	!	!LO:TX:a:t=[segno]:problem=segno na kresce taktowej	!	!LO:TX:a:t=[segno]:problem=segno na kresce taktowej	!	!LO:TX:a:t=[segno]:problem=segno na kresce taktowej	!
!LO:TX:b:t=Dall Segno\n87	!	!	!LO:TX:b:t=Da Capo Al Segno	!	!LO:TX:b:t=Da Capo\n al Segno	!	!LO:TX:b:t=Da Capo al Segno [segno]	!	!LO:TX:b:t=80\nDa Capo al Segno [segno]	!
4r	.	.	4f/	.	4ryy	.	.	.	.	.
=||	=||	=||	=||	=||	=||	=||	=||	=||	=||	=||
*-	*-	*-	*-	*-	*-	*-	*-	*-	*-	*-
!!!system-decoration: [g1][g2]s5
!!!RDF**kern: i = editorial accidental
!!!RDF**kern: > = above
!!!RDF**kern: < = below
!!!RDF**dynam: p = "Piano"
!!!RDF**dynam: f = "fort:"
!!!RDF**kern: | = vertical stroke
!!!ENC: Marta Lawrence
!!!END: 2020-08-19
!!!ENC: Andrzej Borzym
!!!END: 2020-05-31
!!!YEC: Copyright 2022 Narodowy Instytut Fryderyka Chopina (https://polishscores.org)
!!!YEM: Licence CC BY 4.0 (https://creativecommons.org/licenses/by/4.0)
